!!!!SEGMENT: pl-wtm--r-71-n--001_noskowski-zygmunt-powrot-suita-krakowiakow-allegro-moderato.krn
!!!id: 18xx:2111
!!!COM: Noskowski, Zygmunt
!!!OTL: Powrót – Suita krakowiaków – Allegro moderato
!!!PDT: 1894
!!!SMS-siglum: PL-Wtm
!!!SMS-shelfmark: R 71/N
!!!NIFC-rismID: 1001096000
!!!URL-scan: http://repozytorium.nifc.pl/skany/pl-wtm-nut--r71n
!!!ONB-nifc: UWAGA: Numeracja krakowiaków zgodna z kolejnością źródłową (I-VIII)
!!!SMS-variant:
!!!SMS-altvar:
!!!OMD: Allegro moderato
**kern	**kern	**dynam	**kern	**kern	**dynam	**kern	**text	**dynam	**kern	**text	**dynam	**kern	**text	**dynam	**kern	**text	**dynam
*group1	*group1	*	*group1	*group1	*	*	*	*	*	*	*	*	*	*	*	*	*
*I""Pianoforte	*I""Pianoforte	*	*I""Pianoforte	*I""Pianoforte	*	*	*	*	*	*	*	*	*	*	*	*	*
*part6	*part6	*part6	*part5	*part5	*part5	*part4	*part4	*part4	*part3	*part3	*part3	*part2	*part2	*part2	*part1	*part1	*part1
*staff8	*staff7	*	*staff6	*staff5	*	*staff4	*staff4	*	*staff3	*staff3	*	*staff2	*staff2	*	*staff1	*staff1	*
*I"2do	*	*	*I"1mo	*	*	*I"Bas	*	*	*I"Tenor	*	*	*I"Alt	*	*	*I"Sopran	*	*
*	*	*	*	*	*	*	*	*	*ITrd8c12	*	*	*	*	*	*	*	*
*clefF4	*clefF4	*	*clefG2	*clefG2	*	*clefF4	*	*	*clefG2	*	*	*clefG2	*	*	*clefG2	*	*
*k[f#c#g#d#]	*k[f#c#g#d#]	*	*k[f#c#g#d#]	*k[f#c#g#d#]	*	*k[f#c#g#d#]	*	*	*k[f#c#g#d#]	*	*	*k[f#c#g#d#]	*	*	*k[f#c#g#d#]	*	*
*E:	*E:	*	*E:	*E:	*	*E:	*	*	*E:	*	*	*E:	*	*	*E:	*	*
*M2/4	*M2/4	*	*M2/4	*M2/4	*	*M2/4	*	*	*M2/4	*	*	*M2/4	*	*	*M2/4	*	*
=1	=1	=1	=1	=1	=1	=1	=1	=1	=1	=1	=1	=1	=1	=1	=1	=1	=1
*	*	*	*	*8va	*	*	*	*	*	*	*	*	*	*	*	*	*
!	!LO:TX:a:i:t=Allegro moderato	!	!	!LO:TX:a:i:t=Allegro moderato	!	!	!	!	!	!	!	!	!	!	!	!	!
8EEE/L 8BBB 8EE	8E\L 8G# 8B 8e	sfz	8g#\ 8b 8ee 8gg#	8eee\ 8ggg# 8bbb 8eeee	sfz	2r	.	.	2r	.	.	2r	.	.	2r	.	.
*	*	*	*	*X8va	*	*	*	*	*	*	*	*	*	*	*	*	*
8EE'/ 8BB	8E'\ 8G# 8B	f	8r	8r	.	.	.	.	.	.	.	.	.	.	.	.	.
8EE'/ 8BB	8E'\ 8G# 8B	.	4r	4r	.	.	.	.	.	.	.	.	.	.	.	.	.
8EE'/J 8BB	8E'\J 8G# 8B	.	.	.	.	.	.	.	.	.	.	.	.	.	.	.	.
=2	=2	=2	=2	=2	=2	=2	=2	=2	=2	=2	=2	=2	=2	=2	=2	=2	=2
*rep	*rep	*	*rep	*rep	*	*	*	*	*	*	*	*	*	*	*	*	*
*	*	*	*	*8va	*	*	*	*	*	*	*	*	*	*	*	*	*
8EEE/L 8BBB 8EE	8E\L 8G# 8B 8e	.	8g#\ 8b 8ee 8gg#	8eee\ 8ggg# 8bbb 8eeee	.	2r	.	.	2r	.	.	2r	.	.	2r	.	.
*	*	*	*	*X8va	*	*	*	*	*	*	*	*	*	*	*	*	*
8EE'/ 8BB	8E'\ 8G# 8B	.	8r	8r	.	.	.	.	.	.	.	.	.	.	.	.	.
8EE'/ 8BB	8E'\ 8G# 8B	.	4r	4r	.	.	.	.	.	.	.	.	.	.	.	.	.
8EE'/J 8BB	8E'\J 8G# 8B	.	.	.	.	.	.	.	.	.	.	.	.	.	.	.	.
*Xrep	*Xrep	*	*Xrep	*Xrep	*	*	*	*	*	*	*	*	*	*	*	*	*
=3	=3	=3	=3	=3	=3	=3	=3	=3	=3	=3	=3	=3	=3	=3	=3	=3	=3
*	*	*	*	*8va	*	*	*	*	*	*	*	*	*	*	*	*	*
8EE'/L 8BB	8E'\L 8G# 8B	.	4e/ 4g# 4b 4ee	4bb\ 4eee 4ggg# 4bbb	f	2r	.	.	2r	.	.	2r	.	.	2r	.	.
8EE'/ 8BB	8E'\ 8G# 8B	.	.	.	.	.	.	.	.	.	.	.	.	.	.	.	.
8EE'/ 8BB	8E'\ 8G# 8B	.	8r	8r	.	.	.	.	.	.	.	.	.	.	.	.	.
8EE'/J 8BB	8E'\J 8G# 8B	.	(>16aa\LL	(>16aaa\LL	.	.	.	.	.	.	.	.	.	.	.	.	.
.	.	.	16gg#\JJ	16ggg#\JJ	.	.	.	.	.	.	.	.	.	.	.	.	.
=4	=4	=4	=4	=4	=4	=4	=4	=4	=4	=4	=4	=4	=4	=4	=4	=4	=4
8EE'/L 8BB	8F#'\L 8A 8d#	.	8ff#\)	8fff#\)	.	2r	.	.	2r	.	.	2r	.	.	2r	.	.
8EE^^>/ 8BB	8F#^^>\ 8A 8d#	.	4ccc#^^>\	4cccc#^^>\	.	.	.	.	.	.	.	.	.	.	.	.	.
8EE'/ 8BB	8E'\ 8A 8c#	.	.	.	.	.	.	.	.	.	.	.	.	.	.	.	.
8EE'/J 8BB	8F#'\J 8A 8d#	.	(>16bb\LL	(>16bbb\LL	.	.	.	.	.	.	.	.	.	.	.	.	.
.	.	.	16aa\JJ	16aaa\JJ	.	.	.	.	.	.	.	.	.	.	.	.	.
=5	=5	=5	=5	=5	=5	=5	=5	=5	=5	=5	=5	=5	=5	=5	=5	=5	=5
8EE'/L 8BB	8G#'\L 8B 8e	.	16gg#\LL	16ggg#\LL	.	2r	.	.	2r	.	.	2r	.	.	2r	.	.
.	.	.	16ff#\	16fff#\	.	.	.	.	.	.	.	.	.	.	.	.	.
8EE'/ 8BB	8E'\J 8G# 8B	.	16ee\	16eee\	.	.	.	.	.	.	.	.	.	.	.	.	.
.	.	.	16ff#\JJ	16fff#\JJ	.	.	.	.	.	.	.	.	.	.	.	.	.
8EE'/ 8BB	8E'\L 8G# 8B	.	8gg#\L)	8ggg#\L)	.	.	.	.	.	.	.	.	.	.	.	.	.
8EE'/J 8BB	8E'\J 8G# 8B	.	8aa'\J	8aaa'\J	.	.	.	.	.	.	.	.	.	.	.	.	.
!!LO:LB:g=original
=6	=6	=6	=6	=6	=6	=6	=6	=6	=6	=6	=6	=6	=6	=6	=6	=6	=6
8EE/L 8BB	8F#\L 8A 8d#	.	8ff#\	8fff#\	.	2r	.	.	2r	.	.	2r	.	.	2r	.	.
!	!LO:TX:b:i:t=sempre staccato	!	!	!	!	!	!	!	!	!	!	!	!	!	!	!	!
8EE^^>/ 8BB	8F#^^>\ 8A 8d#	.	4ccc#^^>\	4cccc#^^>\	.	.	.	.	.	.	.	.	.	.	.	.	.
8EE/ 8BB	8E\ 8A 8c#	.	.	.	.	.	.	.	.	.	.	.	.	.	.	.	.
8EE/J 8BB	8F#\J 8A 8d#	.	(>16bb\LL	(>16bbb\LL	.	.	.	.	.	.	.	.	.	.	.	.	.
.	.	.	16aa\JJ	16aaa\JJ	.	.	.	.	.	.	.	.	.	.	.	.	.
=7	=7	=7	=7	=7	=7	=7	=7	=7	=7	=7	=7	=7	=7	=7	=7	=7	=7
8EE/L 8BB	8G#\L 8B 8e	.	16gg#\LL	16ggg#\LL	.	2r	.	.	2r	.	.	2r	.	.	2r	.	.
.	.	.	16ff#\	16fff#\	.	.	.	.	.	.	.	.	.	.	.	.	.
8EE/ 8E	8G#\ 8B 8g#	.	16gg#\	16ggg#\	.	.	.	.	.	.	.	.	.	.	.	.	.
.	.	.	16aa#X\JJ)	16aaa#X\JJ)	.	.	.	.	.	.	.	.	.	.	.	.	.
8DD#/ 8D#	8F#\ 8B 8f#	.	8bb'\L	8bbb'\L	.	.	.	.	.	.	.	.	.	.	.	.	.
8CC#/J 8C#	8F#\J 8A#X 8e	.	8ccc#'\J	8cccc#'\J	.	.	.	.	.	.	.	.	.	.	.	.	.
=8	=8	=8	=8	=8	=8	=8	=8	=8	=8	=8	=8	=8	=8	=8	=8	=8	=8
8BBB/L 8BB	8F#\L 8B 8d#	.	8ddd#'\L	8dddd#'\L	.	2r	.	.	2r	.	.	2r	.	.	2r	.	.
8GGG#/ 8GG#	8G#\ 8B 8e	.	8ee^^>\J	8eee^^>\ 8eeee	.	.	.	.	.	.	.	.	.	.	.	.	.
8AAA#X/ 8AA#X	8F#\ 8c# 8f#	.	8ff#^^>\L	8fff#^^>\ 8ffff#	.	.	.	.	.	.	.	.	.	.	.	.	.
8BBB/J 8BB	8F#\J 8B 8d#	.	(>16eee\L	(>16eeee\L	.	.	.	.	.	.	.	.	.	.	.	.	.
.	.	.	16ddd#\JJ	16dddd#\JJ	.	.	.	.	.	.	.	.	.	.	.	.	.
=9	=9	=9	=9	=9	=9	=9	=9	=9	=9	=9	=9	=9	=9	=9	=9	=9	=9
8FFF#/L 8FF#	8E\L 8A#X 8c#	.	8ccc#\)	8cccc#\)	.	2r	.	.	2r	.	.	2r	.	.	2r	.	.
8FFF#/ 8FF#	8A#\ 8e 8g#	.	4ee^^\	4eee^^\ 4eeee	.	.	.	.	.	.	.	.	.	.	.	.	.
8FFF#/ 8FF#	8A#\ 8e 8g#	.	.	.	.	.	.	.	.	.	.	.	.	.	.	.	.
8FFF#/J 8FF#	8A#\J 8e 8f#	.	(>16ddd#\LL	(>16dddd#\LL	.	.	.	.	.	.	.	.	.	.	.	.	.
.	.	.	16ccc#\JJ	16cccc#\JJ	.	.	.	.	.	.	.	.	.	.	.	.	.
=10	=10	=10	=10	=10	=10	=10	=10	=10	=10	=10	=10	=10	=10	=10	=10	=10	=10
4BBB/ 4BB	8B\L 8d# 8f#	.	4bb\)	4bbb\)	.	2r	.	.	2r	.	.	2r	.	.	2r	.	.
.	8B\ 8d# 8f#	.	.	.	.	.	.	.	.	.	.	.	.	.	.	.	.
4r	8B\ 8d# 8f#	.	8r	8r	.	.	.	.	.	.	.	.	.	.	.	.	.
.	8A#X\J 8c# 8f#	.	(>16ddd#\LL	(>16dddd#\LL	.	.	.	.	.	.	.	.	.	.	.	.	.
.	.	.	16ccc#\JJ	16cccc#\JJ	.	.	.	.	.	.	.	.	.	.	.	.	.
=11	=11	=11	=11	=11	=11	=11	=11	=11	=11	=11	=11	=11	=11	=11	=11	=11	=11
4BBB^^>/ 4BB	8F#\L 8B 8d#	.	4ff#\)	4fff#\) 4ffff#	.	2r	.	.	2r	.	.	2r	.	.	2r	.	.
.	8F#\J 8B 8d#	.	.	.	.	.	.	.	.	.	.	.	.	.	.	.	.
4FFF#^^>/ 4FF#	8E\L 8A#X 8c#	.	8r	8r	.	.	.	.	.	.	.	.	.	.	.	.	.
.	8E\J 8A# 8c#	.	(>16ddd#\LL	(>16dddd#\LL	.	.	.	.	.	.	.	.	.	.	.	.	.
.	.	.	16ccc#\JJ	16cccc#\JJ	.	.	.	.	.	.	.	.	.	.	.	.	.
!!LO:PB:g=original
=12	=12	=12	=12	=12	=12	=12	=12	=12	=12	=12	=12	=12	=12	=12	=12	=12	=12
4GGG#^^>/ 4GG#	8D#\L 8G# 8B	.	4bb\)	4bbb\)	.	2r	.	.	2r	.	.	2r	.	.	2r	.	.
.	8D#\J 8G# 8B	.	.	.	.	.	.	.	.	.	.	.	.	.	.	.	.
4r	8G#\L 8B 8d#	.	8r	8r	.	.	.	.	.	.	.	.	.	.	.	.	.
.	8B\J 8d# 8g#	.	(>16ddd#\LL	(>16dddd#\LL	.	.	.	.	.	.	.	.	.	.	.	.	.
.	.	.	16ccc#\JJ	16cccc#\JJ	.	.	.	.	.	.	.	.	.	.	.	.	.
=13	=13	=13	=13	=13	=13	=13	=13	=13	=13	=13	=13	=13	=13	=13	=13	=13	=13
4AAA#X^^>/ 4AA#X	8F#\L 8c# 8f#	.	4ff#\)	4fff#\) 4ffff#	.	2r	.	.	2r	.	.	2r	.	.	2r	.	.
.	8F#\ 8c# 8f#	.	.	.	.	.	.	.	.	.	.	.	.	.	.	.	.
4FFF#^^>/ 4FF#	8F#\ 8A#X 8e	.	8r	8r	.	.	.	.	.	.	.	.	.	.	.	.	.
.	8F#\J 8A# 8e	.	(>16ddd#\LL	(>16dddd#\LL	.	.	.	.	.	.	.	.	.	.	.	.	.
.	.	.	16ccc#\JJ	16cccc#\JJ	.	.	.	.	.	.	.	.	.	.	.	.	.
=14	=14	=14	=14	=14	=14	=14	=14	=14	=14	=14	=14	=14	=14	=14	=14	=14	=14
8BBB/ 8BB	8F#\ 8B 8d#	.	8bb\)	8bbb\)	.	2r	.	.	2r	.	.	2r	.	.	2r	.	.
*	*	*	*	*X8va	*	*	*	*	*	*	*	*	*	*	*	*	*
8r	8r	.	8r	8r	.	.	.	.	.	.	.	.	.	.	.	.	.
!	!LO:TX:a:i:t=Mezzo allegro	!LO:DY:rj	!	!LO:TX:a:i:t=Mezzo allegro	!	!	!	!	!	!	!	!	!	!	!	!	!
8BBB'/L 8BB	8D#'\L 8F# 8B	p	8d#'/L 8f# 8b	8dd#'\L 8ff# 8bb	p	.	.	.	.	.	.	.	.	.	.	.	.
8AAAn'/J 8AAn	8E'\J 8Gn 8cn	.	8e'/J 8gn 8ccn	8ee'\J 8ggn 8cccn	.	.	.	.	.	.	.	.	.	.	.	.	.
=15	=15	=15	=15	=15	=15	=15	=15	=15	=15	=15	=15	=15	=15	=15	=15	=15	=15
8CCn'/L 8Cn	8E-X'\L 8Gn 8cn	.	8e-X'/L 8gn 8ccn	8ee-X'\L 8ggn 8cccn	.	2r	.	.	2r	.	.	2r	.	.	2r	.	.
8BBB-X'/J 8BB-X	8Fn'\J 8A-X 8d-X	.	8fn'/J 8a-X 8dd-X	8ffn'\J 8aa-X 8ddd-X	.	.	.	.	.	.	.	.	.	.	.	.	.
8DD-X'/L 8D-X	8F-X'\L 8A- 8d-	.	8f-X'/L 8a- 8dd-	8ff-X'\L 8aa- 8ddd-	.	.	.	.	.	.	.	.	.	.	.	.	.
!	!LO:TX:b:i:t=poco a poco crescendo:problem:dynamics with extention lines	!	!	!LO:TX:b:i:t=poco a poco crescendo:problem:dynamics with extention lines	!LO:HP:t=poco a poco crescendo:ext=s	!	!	!	!	!	!	!	!	!	!	!	!
!	!	!LO:HP:t=poco a poco crescendo:ext=s	!	!	!	!	!	!	!	!	!	!	!	!	!	!	!
8CC'/J 8C	8Gn'\J 8B-X 8e-X	<	8gn'/J 8b-X 8ee-X	8ggn'\J 8bb-X 8eee-X	<	.	.	.	.	.	.	.	.	.	.	.	.
=16	=16	=16	=16	=16	=16	=16	=16	=16	=16	=16	=16	=16	=16	=16	=16	=16	=16
8EE-X'/L 8E-X	8G-X'\L 8B-X 8e-X	.	8g-X'\L 8b-X 8ee-X	8gg-X'\L 8bb-X 8eee-X	.	2r	.	.	2r	.	.	2r	.	.	2r	.	.
8DDn'/J 8Dn	8An'\J 8cn 8fn	.	8an'\J 8ccn 8ffn	8aan'\J 8cccn 8fffn	.	.	.	.	.	.	.	.	.	.	.	.	.
8FFn'/L 8Fn	8A-X'\L 8c 8f	.	8a-X'\L 8cc 8ff	8aa-X'\L 8ccc 8fff	.	.	.	.	.	.	.	.	.	.	.	.	.
8EE-'/J 8E-	8B-X'\J 8d-X 8g-X	[	8b-X'\J 8dd-X 8gg-X	8bb-X'\J 8ddd-X 8ggg-X	.	.	.	.	.	.	.	.	.	.	.	.	.
*	*clefG2	*	*	*	*	*	*	*	*	*	*	*	*	*	*	*	*
=17	=17	=17	=17	=17	=17	=17	=17	=17	=17	=17	=17	=17	=17	=17	=17	=17	=17
*	*	*	*	*8va	*	*	*	*	*	*	*	*	*	*	*	*	*
8GG-X'/L 8G-X	8B--'/L 8d-X 8g-X	.	8b--'\L 8dd-X 8gg-X	8bb--'\L 8ddd-X 8ggg-X	.	2r	.	.	2r	.	.	2r	.	.	2r	.	.
8FFn'/J 8Fn	8cn'/ 8e-X 8a-X	.	8ccn'\ 8ee-X 8aa-X	8cccn'\ 8eee-X 8aaa-X	[	.	.	.	.	.	.	.	.	.	.	.	.
8AA-X'/L 8A-X	8c-X'/ 8e- 8a-	.	8cc-X'\ 8ee- 8aa-	8ccc-X'\ 8eee- 8aaa-	.	.	.	.	.	.	.	.	.	.	.	.	.
8GGn'/J 8Gn	8d-X'/J 8fn 8b-X	.	8dd-X'\J 8ffn 8bb-X	8ddd-X'\J 8fffn 8bbb-X	.	.	.	.	.	.	.	.	.	.	.	.	.
!!LO:LB:g=original
=18	=18	=18	=18	=18	=18	=18	=18	=18	=18	=18	=18	=18	=18	=18	=18	=18	=18
8GGn'/L 8Gn	8d-X'/L 8fn 8b-X	.	8dd-X'\L 8ffn 8bb-X	8ddd-X'\L 8fffn 8bbb-X	.	2r	.	.	2r	.	.	2r	.	.	2r	.	.
!	!LO:TX:a:i:t=sostenuto	!	!	!LO:TX:b:i:t=sostenuto	!	!	!	!	!	!	!	!	!	!	!	!	!
8DDn'/ 8Dn	8Bn'/ 8f 8bn	.	8ff'\ 8bbn	8fff'\ 8bbbn	.	.	.	.	.	.	.	.	.	.	.	.	.
8DD'/ 8D	8B'/ 8f 8b	.	8ff'\ 8bb	8fff'\ 8bbb	.	.	.	.	.	.	.	.	.	.	.	.	.
8GGGn'/J 8GG	8B'/J 8f 8gn	.	8b'\J 8ff 8ggn	8bb'\J 8fff 8gggn 8bbb	.	.	.	.	.	.	.	.	.	.	.	.	.
=19	=19	=19	=19	=19	=19	=19	=19	=19	=19	=19	=19	=19	=19	=19	=19	=19	=19
8GGGn'/L 8GGn	8B'/L 8fn 8gn	<	8b'\L 8ffn 8ggn	8bb'\L 8fffn 8gggn 8bbb	< <	2r	.	.	2r	.	.	2r	.	.	2r	.	.
8CCn'/J 8Cn	8cn'/ 8e 8g	[	8ccn'\ 8ee 8gg	8cccn'\ 8eee 8ggg 8ccccn	.	.	.	.	.	.	.	.	.	.	.	.	.
8AAA'/L 8AA	8c'/ 8e 8a	.	8cc'\ 8ee 8aa	8ccc'\ 8eee 8aaa 8cccc	[ [	.	.	.	.	.	.	.	.	.	.	.	.
8FFn'/J 8Fn	8A'/J 8dn 8a	.	8ddn'\J 8aa	8dddn'\J 8aaa 8ddddn	.	.	.	.	.	.	.	.	.	.	.	.	.
=20	=20	=20	=20	=20	=20	=20	=20	=20	=20	=20	=20	=20	=20	=20	=20	=20	=20
!	!LO:TX:a:i:t=molto ri-te-nu-to	!	!	!LO:TX:b:i:t=molto ri-te-nu-to	!	!LO:TX:b:i:t=molto riten	!	!	!LO:TX:b:i:t=molto riten	!	!	!LO:TX:b:i:t=molltoriten	!	!	!LO:TX:b:i:t=molto riten	!	!
!	!	!LO:DY:rj	!	!	!LO:DY:rj	!	!	!	!	!	!	!	!	!	!	!	!
8FFn'>'</L 8Fn	8A'<^^>/L 8dn 8a	f	8ddn'\L 8aa	8dddn'\L 8aaa 8ddddn	f	2r	.	.	2r	.	.	2r	.	.	2r	.	.
8BBB^^>/J 8BB	8B^^>/ 8d#X 8a 8b	.	8dd#X^^\ 8aa 8bb	8ddd#X^^\ 8aaa 8bbb 8dddd#X	.	.	.	.	.	.	.	.	.	.	.	.	.
8BBB^^>/L 8BB	8B^^>/ 8d# 8a 8b	.	8dd#^^\ 8aa 8bb	8ddd#^^\ 8aaa 8bbb 8dddd#	.	.	.	.	.	.	.	.	.	.	.	.	.
8BBB^^>/J 8BB	8B^^>/J 8d# 8a 8b	.	8dd#^^\J 8aa 8bb	8ddd#^^\J 8aaa 8bbb 8dddd#	.	.	.	.	.	.	.	.	.	.	.	.	.
=21	=21	=21	=21	=21	=21	=21	=21	=21	=21	=21	=21	=21	=21	=21	=21	=21	=21
8BBB^^>/L 8BB	8B^^>/L 8d# 8a 8b	.	8dd#^^\L 8aa 8bb	8ddd#^^\L 8aaa 8bbb 8dddd#	.	2r	.	.	2r	.	.	2r	.	.	2r	.	.
8BBB^^>/ 8BB	8B^^>/ 8d# 8a 8b	.	8dd#^^\ 8aa 8bb	8ddd#^^\ 8aaa 8bbb 8dddd#	.	.	.	.	.	.	.	.	.	.	.	.	.
8BBB^^>/ 8BB	8B^^>/ 8d# 8a 8b	.	8dd#^^\ 8aa 8bb	8ddd#^^\ 8aaa 8bbb 8dddd#	.	.	.	.	.	.	.	.	.	.	.	.	.
8EE^^>/J 8E	8B^^>/J 8e 8g# 8b	.	8ee^^\J 8gg# 8bb	8eee^^\J 8ggg# 8bbb 8eeee	.	.	.	.	.	.	.	.	.	.	.	.	.
=22||	=22||	=22||	=22||	=22||	=22||	=22||	=22||	=22||	=22||	=22||	=22||	=22||	=22||	=22||	=22||	=22||	=22||
!	!	!	!	!	!	!	!	!	!	!	!	!	!	!	!LO:TX:a:i:t=Tempo Io.	!	!
!	!	!LO:DY:rj	!	!	!LO:DY:rj	!	!	!LO:DY:b:rj	!	!	!LO:DY:b:rj	!	!	!LO:DY:b:rj	!	!	!LO:DY:b:rj
8EE^^>/ 8BB 8E	8B^^>/ 8e 8g# 8b	ff	8.ee^^\L 8.gg# 8.bb	8.eee^^\L 8.ggg# 8.bbb 8.eeee	ff	8.E^\	.	ff	8.B^\	.	ff	8.g#^/	Szedł	ff	8.ee^\	.	ff
!	!LO:TX:a:i:t=Tempo Io.	!	!	!	!	!	!	!	!	!	!	!	!	!	!	!	!
8r	8r	.	.	.	.	.	.	.	.	.	.	.	.	.	.	.	.
!	!	!	!	!LO:TX:b:i:t=Tempo Io.	!	!	!	!	!	!	!	!	!	!	!	!	!
.	.	.	16dd#\Jk	16ddd#\Jk 16dddd#	.	16E\	.	.	16B\	.	.	16g#/	raz	.	16dd#\	.	.
*	*clefF4	*	*	*	*	*	*	*	*	*	*	*	*	*	*	*	*
!	!LO:TX:b:i:t=marcato	!	!	!	!	!	!	!	!	!	!	!	!	!	!	!	!
8EE/L 8BB	8E\L 8G# 8B	.	8cc#\L	8ccc#\L 8cccc#	.	8E\	.	.	8B\	.	.	8g#/	z_wojs-	.	8cc#\	.	.
!	!	!	!	!LO:TX:b:i:t=marcato	!	!	!	!	!	!	!	!	!	!	!	!	!
8EE/J 8BB	8E\J 8G# 8B	.	8g#\J	8gg#\J 8ggg#	.	8E\	.	.	8B\	.	.	8e/	-kiem	.	8g#/	.	.
!!LO:PB:g=original
=23	=23	=23	=23	=23	=23	=23	=23	=23	=23	=23	=23	=23	=23	=23	=23	=23	=23
8EE/L 8BB	8E\L 8G# 8B	.	8b\L	8bb\L 8bbb	.	8E\	.	.	8B\	.	.	8g#/	król	.	8b\	.	.
8EE/ 8BB	8E\ 8G# 8B	.	8cc#\J	8ccc#\J 8cccc#	.	8E\	.	.	8B\	.	.	8g#/	na	.	8cc#\	.	.
8EE/ 8BB	8E\ 8G# 8B	.	8b/L	8bb\L 8bbb	.	8E\	.	.	8B\	.	.	8g#/	woj-	.	8b\	.	.
8EE/J 8BB	8E\J 8G# 8B	.	8g#/J	8gg#\J 8ggg#	.	8E\	.	.	8B\	.	.	8e/	-nę,	.	8g#/	.	.
=24	=24	=24	=24	=24	=24	=24	=24	=24	=24	=24	=24	=24	=24	=24	=24	=24	=24
8EE/L 8BB	8.E^^>\L 8.A 8.B	.	8.f#^^>/L	8.ff#^^>\L 8.ddd# 8.fff#	.	8.E^^\	.	.	8.B^^\	.	.	8.d#^^/	Szedł	.	8.f#^^/	.	.
8EE/ 8BB	.	.	.	.	.	.	.	.	.	.	.	.	.	.	.	.	.
.	16E\Jk 16A 16B	.	16cc#/Jk	16ccc#\Jk 16cccc#	.	16E\	.	.	16B\	.	.	16a/	na	.	16cc#\	.	.
8EE/ 8BB	8E\L 8G# 8B	.	8b/L	8bb\L 8bbb	.	8E\	.	.	8B\	.	.	8g#/	woj-	.	8b\	.	.
8EE/J 8BB	8E\J 8A 8B	.	8a/J	8aa\J 8aaa	.	8E\	.	.	8B\	.	.	8f#/	-nę,	.	8a/	.	.
=25	=25	=25	=25	=25	=25	=25	=25	=25	=25	=25	=25	=25	=25	=25	=25	=25	=25
8EE/L 8BB	8G#\L 8B 8e	.	8g#/L	8gg#\L 8ggg#	.	8E\	.	.	8B\	.	.	8e/	szedł	.	8g#/	.	.
8EE/ 8BB	8F#\ 8A 8e	.	8f#/	8ff#\ 8fff#	.	8E\	.	.	8A/	.	.	8e/	na	.	8f#/	.	.
8EE/ 8BB	8E\ 8G# 8B	.	8g#/	8gg#\ 8ggg#	.	8E\	.	.	8B/	.	.	8e/	woj-	.	8g#/	.	.
8EE/J 8BB	8G#\J 8B	.	8e/J	8ee\J 8eee	.	8E\	.	.	8G#/	.	.	8B/	-nę;	.	8e/	.	.
=26	=26	=26	=26	=26	=26	=26	=26	=26	=26	=26	=26	=26	=26	=26	=26	=26	=26
8.EE^^>/L 8.E	8.A#X^^>\L 8.c#	.	8.f#^^>/L	8.ff#^^>\L 8.fff#	.	8.E\	.	.	8.A#X/	.	.	8.c#/	Szły	.	8.f#/	.	.
16DD#/Jk 16D#	16B\Jk 16d#	.	16g#/Jk	16gg#\Jk 16ggg#	.	16D#\	.	.	16B/	.	.	16d#/	za	.	16g#/	.	.
8CC#/L 8C#	8c#\L 8e	.	8a#X/L	8aa#X\L 8aaa#X	.	8C#/	.	.	8c#\	.	.	8e/	kró-	.	8a#X/	.	.
8EE/J 8E	8A#\J 8c#	.	8f#/J	8ff#\J 8fff#	.	8E\	.	.	8A#/	.	.	8c#/	-lem	.	8f#/	.	.
=27	=27	=27	=27	=27	=27	=27	=27	=27	=27	=27	=27	=27	=27	=27	=27	=27	=27
8DD#/L 8D#	8F#\L 8B	.	8f#/L 8b	8bb\L 8fff# 8bbb	.	8D#\	.	.	8B\	.	.	8f#/	pocz-	.	8b\	.	.
8EE/ 8E	8F#\ 8c#	.	8a#X/J	8aa#X\ 8aaa#X	.	8E\	.	.	8c#\	.	.	8f#/	-ty	.	8a#X/	.	.
8DD#/ 8D#	8F#\ 8B	.	8b\L	8bb\ 8bbb	.	8D#\	.	.	8B\	.	.	8f#/	zbroj-	.	8b\	.	.
8BBB/J 8BB	8F#\J 8B	.	8dd#\J	8ddd#\J 8dddd#	.	8BB/	.	.	8B\	.	.	8f#/	-ne	.	8dd#\	.	.
!!LO:LB:g=original
=28	=28	=28	=28	=28	=28	=28	=28	=28	=28	=28	=28	=28	=28	=28	=28	=28	=28
8AAA#X/L 8AA#X	8F#\L 8c# 8f#	.	8cc#\L	8ccc#\L 8cccc#	.	8AA#X/	.	.	8c#\	.	.	8f#/	Pocz-	.	8cc#\	.	.
8CC#/ 8C#	8F#\ 8A#X 8f#	.	8ee\	8eee\ 8eeee	.	8C#/	.	.	8A#X/	.	.	8f#/	-ty	.	8ee\	.	.
8FF#/ 8F#	8A#\ 8f#	.	8dd#\	8ddd#\ 8dddd#	.	8F#\	.	.	8A#/	.	.	8f#/	zbroj-	.	8dd#\	.	.
8EE/J 8E	8F#\J 8A# 8f#	.	8cc#\J	8ccc#\J 8cccc#	.	8E\	.	.	8A#/	.	.	8f#/	-ne,	.	8cc#\	.	.
=29	=29	=29	=29	=29	=29	=29	=29	=29	=29	=29	=29	=29	=29	=29	=29	=29	=29
8DD#/L 8D#	8F#\L 8B 8f#	.	8ff#\L	8fff#\L 8ffff#	.	8D#\	.	.	8B\	.	.	8f#/	huf-	.	8ff#\	.	.
8GG#/J 8G#	8B\J 8d# 8g#	.	8dd#\J	8ddd#\J 8dddd#	.	8G#\	.	.	8B\	.	.	8g#/	-ce	.	8dd#\	.	.
4CC#^^>/ 4C#	4G#^^>\ 4B 4e 4g#	.	4b^^>\ 4gg# 4bb	4ggg#^^>\ 4gggg#	.	(>4C#/	.	.	(>[>4e\	.	.	(>[>4b\	stroj-	.	(>4gg#\	.	.
=30	=30	=30	=30	=30	=30	=30	=30	=30	=30	=30	=30	=30	=30	=30	=30	=30	=30
4GGG#^^>/ 4GG#	4E^^>\ 4B 4e	.	4b^^>\ 4ee	4eee^^>\ 4eeee	.	4G#\	.	.	4e\]	.	.	4b\]	.	.	4ee\	.	.
4FFF#^^>/ 4FF#	8F#\L 8f#	.	8a#X/L 8dd#	8ddd#\L 8dddd#	.	4F#\)	.	.	8f#\L	.	.	8a#X/L	.	.	8dd#\L	.	.
.	8F#\J 8e	.	8g#/J 8cc#	8ccc#\J 8cccc#	.	.	.	.	8e\J)	.	.	8g#/J)	.	.	8cc#\J)	.	.
=31	=31	=31	=31	=31	=31	=31	=31	=31	=31	=31	=31	=31	=31	=31	=31	=31	=31
8BBB/L 8FF# 8BB	8F#\L 8B 8d#	sfz	8f#/ 8b 8dd#	8bb\ 8ddd# 8fff# 8bbb	sfz	4B\	.	.	4d#\	.	.	4f#/	-ne.	.	4b\	.	.
8BBB/ 8FF# 8BB	8F#\ 8B 8d#	.	8r	8r	.	.	.	.	.	.	.	.	.	.	.	.	.
8BBB/ 8FF# 8BB	8F#\ 8B 8d#	.	4r	4r	.	4r	.	.	4r	.	.	4r	.	.	4r	.	.
8BBB/J 8FF# 8BB	8F#\J 8B 8d#	.	.	.	.	.	.	.	.	.	.	.	.	.	.	.	.
=32	=32	=32	=32	=32	=32	=32	=32	=32	=32	=32	=32	=32	=32	=32	=32	=32	=32
*rep	*rep	*	*rep	*rep	*	*	*	*	*	*	*	*	*	*	*	*	*
8BBB/L 8FF# 8BB	8F#\L 8B 8d#	sfzy	8f#/ 8b 8dd#	8bb\ 8ddd# 8fff# 8bbb	sfzy	2r	.	.	2r	.	.	2r	.	.	2r	.	.
8BBB/ 8FF# 8BB	8F#\ 8B 8d#	.	8r	8r	.	.	.	.	.	.	.	.	.	.	.	.	.
8BBB/ 8FF# 8BB	8F#\ 8B 8d#	.	4r	4r	.	.	.	.	.	.	.	.	.	.	.	.	.
8BBB/J 8FF# 8BB	8F#\J 8B 8d#	.	.	.	.	.	.	.	.	.	.	.	.	.	.	.	.
*Xrep	*Xrep	*	*Xrep	*Xrep	*	*	*	*	*	*	*	*	*	*	*	*	*
=33	=33	=33	=33	=33	=33	=33	=33	=33	=33	=33	=33	=33	=33	=33	=33	=33	=33
*rep	*rep	*	*	*	*	*	*	*	*	*	*	*	*	*	*	*	*
8BBB/L 8FF# 8BB	8F#\L 8B 8d#	sfzy	4f#/ 4b 4dd# 4ff#	4bb\ 4ddd# 4fff#	f	8.BB/	.	f	8.F#/	.	f	8.d#/	Z każ-	f	8.f#/	.	f
8BBB/ 8FF# 8BB	8F#\ 8B 8d#	.	.	.	.	.	.	.	.	.	.	.	.	.	.	.	.
.	.	.	.	.	.	16BB/	.	.	16F#/	.	.	16d#/	-dej	.	16b\	.	.
8BBB/ 8FF# 8BB	8F#\ 8B 8d#	.	8r	8r	.	8BB/	.	.	8F#/	.	.	8d#/	wios-	.	8a#X/	.	.
8BBB/J 8FF# 8BB	8F#\J 8B 8d#	.	(>16ee\LL	(>16eee\LL	.	8BB/	.	.	8F#/	.	.	8d#/	-ki	.	8b\	.	.
.	.	.	16dd#\JJ	16ddd#\JJ	.	.	.	.	.	.	.	.	.	.	.	.	.
*Xrep	*Xrep	*	*	*	*	*	*	*	*	*	*	*	*	*	*	*	*
=34	=34	=34	=34	=34	=34	=34	=34	=34	=34	=34	=34	=34	=34	=34	=34	=34	=34
8BBB/L 8FF# 8C#	8F#\L 8A#X 8e	f	8cc#\)	8ccc#\)	f	8F#\	.	.	8A#X/	.	.	8f#/	la-	.	8cc#\	.	.
8BBB/J 8FF# 8AA#X	8F#\ 8c# 8e	.	(>4gg#^^>\	(>4ggg#^^>\	.	8F#\	.	.	8c#\	.	.	8f#/	-da-	.	8ee\	.	.
8BBB/L 8FF#	8F#\ 8B 8d#	.	.	.	.	8BB/	.	.	8B\	.	.	8f#/	-ja-	.	8dd#\	.	.
8BBB/J 8FF#	8F#\J 8A# 8c#	.	16ff#\LL	16fff#\LL	.	8BB/	.	.	8A#/	.	.	8f#/	-kiej	.	8cc#\	.	.
.	.	.	16ee\JJ)	16eee\JJ)	.	.	.	.	.	.	.	.	.	.	.	.	.
!!LO:PB:g=original
=35	=35	=35	=35	=35	=35	=35	=35	=35	=35	=35	=35	=35	=35	=35	=35	=35	=35
4BBB^^>/ 4FF# 4BB	4F#^^>\ 4B 4d#	.	(>16dd#\LL	(>16ddd#\LL	.	8.BB/	.	.	8.F#/	.	.	8.d#/	Pod	.	8.b/	.	.
.	.	.	16cc#\	16ccc#\	.	.	.	.	.	.	.	.	.	.	.	.	.
.	.	.	16b\	16bb\	.	.	.	.	.	.	.	.	.	.	.	.	.
.	.	.	16cc#\JJ)	16ccc#\JJ)	.	16BB/	.	.	16F#/	.	.	16d#/	cho-	.	16a#X/	.	.
8BBB/L 8FF# 8BB	8B\L 8d# 8f#	.	8dd#'\L	8ddd#'\L	.	8BB/	.	.	8F#/	.	.	8d#/	-rąg-	.	8b/	.	.
8BBB/J 8FF# 8BB	8B\J 8d# 8g#	.	8ee'\J	8eee'\J	.	8BB/	.	.	8B\	.	.	8d#/	-wie	.	8g#/	.	.
=36	=36	=36	=36	=36	=36	=36	=36	=36	=36	=36	=36	=36	=36	=36	=36	=36	=36
4BBB^^>/ 4FF# 4BB	4A#X^^>\ 4e 4f#	.	8cc#\	8ccc#\	.	8BB/	.	.	8A#X/	.	.	8e/	szły	.	8f#/	.	.
.	.	.	4gg#^^>\	4ggg#^^>\	.	8BB/	.	.	8A#/	.	.	8e/	chło-	.	8cc#\	.	.
8BBB/L 8FF# 8BB	8G#\L 8e 8f#	.	.	.	.	8BB/	.	.	8G#/	.	.	8e/	-pa-	.	8dd#\	.	.
8BBB/J 8FF# 8BB	8A#\J 8e 8f#	.	(>16ff#\LL	(>16fff#\LL	.	8BB/	.	.	8A#/	.	.	8e/	-ki,	.	8cc#\	.	.
.	.	.	16ee\JJ	16eee\JJ	.	.	.	.	.	.	.	.	.	.	.	.	.
=37	=37	=37	=37	=37	=37	=37	=37	=37	=37	=37	=37	=37	=37	=37	=37	=37	=37
8BBB/ 8FF# 8BB	8B'\L 8d# 8f#	.	16dd#\LL	16ddd#\LL	.	8BB/	.	.	8B\	.	.	8d#/	A	.	8b\	.	.
.	.	.	16ee\	16eee\	.	.	.	.	.	.	.	.	.	.	.	.	.
8r	8F#'\J 8c#	.	16dd#\	16ddd#\	.	8F#\	.	.	8c#\	.	.	8f#/	dzie-	.	8cc#\	.	.
.	.	.	16cc#\JJ)	16ccc#\JJ)	.	.	.	.	.	.	.	.	.	.	.	.	.
8r	[<4B^^>\ [>4d#	.	8b'\L	8bb'\L	.	[>4B\	.	.	[>4d#\	.	.	[>4b\	-wczę-	.	[>4dd#\	.	.
8FFF#^^>/ 8FF#	.	.	8dd#'\J	8ddd#'\J	.	.	.	.	.	.	.	.	.	.	.	.	.
=38	=38	=38	=38	=38	=38	=38	=38	=38	=38	=38	=38	=38	=38	=38	=38	=38	=38
4BBB^^>/ 4BB	4B\] 4d#]	.	8ff#\	8fff#\	.	4B\]	.	.	4d#\]	.	.	4b\]	.	.	4dd#\]	.	.
.	.	.	4aa^^>\	4aaa^^>\	.	.	.	.	.	.	.	.	.	.	.	.	.
4r	4c#^^\ 4e	.	.	.	.	4c#\	.	.	4e\	.	.	4cc#\	-ta	.	4ee\	.	.
.	.	.	(>16ff#\LL	(>16fff#\LL	.	.	.	.	.	.	.	.	.	.	.	.	.
.	.	.	16ee\JJ	16eee\JJ	.	.	.	.	.	.	.	.	.	.	.	.	.
=39	=39	=39	=39	=39	=39	=39	=39	=39	=39	=39	=39	=39	=39	=39	=39	=39	=39
4r	8An'\L 8c#	.	16ff#\LL	16fff#\LL	.	8A\	.	.	8c#\	.	.	8a/	sta-	.	8cc#\	.	.
.	.	.	16gg#\	16ggg#\	.	.	.	.	.	.	.	.	.	.	.	.	.
.	8B'\J 8d#	.	16ff#\	16fff#\	.	8B\	.	.	8d#\	.	.	8b\	-ły	.	8dd#\	.	.
.	.	.	16ee\JJ)	16eee\JJ)	.	.	.	.	.	.	.	.	.	.	.	.	.
8r	[<4d#^^>\ [>4f#	.	8dd#'\L	8ddd#'\L	.	[>4d#\	.	.	[>4f#\	.	.	[>4dd#\	w_pro-	.	[>4ff#\	.	.
8FFF#^^>/ 8FF#	.	.	8ff#'\J	8fff#'\J	.	.	.	.	.	.	.	.	.	.	.	.	.
=40	=40	=40	=40	=40	=40	=40	=40	=40	=40	=40	=40	=40	=40	=40	=40	=40	=40
4BBB^^>/ 4BB	4d#\] 4f#]	.	(>16dd#\LL	(>16ddd#\LL	.	4d#\]	.	.	4f#\]	.	.	4dd#\]	.	.	4ff#\]	.	.
.	.	.	16ee\	16eee\	.	.	.	.	.	.	.	.	.	.	.	.	.
.	.	.	16ff#\	16fff#\	.	.	.	.	.	.	.	.	.	.	.	.	.
.	.	.	16gg#\JJ	16ggg#\JJ	.	.	.	.	.	.	.	.	.	.	.	.	.
4r	4c#^^>\ 4e	.	16aa\LL	16aaa\LL	.	4c#\	.	.	4e\	.	.	4cc#\	-gu	.	4ee\	.	.
.	.	.	16bb\	16bbb\	.	.	.	.	.	.	.	.	.	.	.	.	.
.	.	.	16ccc#\	16cccc#\	.	.	.	.	.	.	.	.	.	.	.	.	.
.	.	.	16bb\JJ)	16bbb\JJ)	.	.	.	.	.	.	.	.	.	.	.	.	.
!!LO:LB:g=original
=41	=41	=41	=41	=41	=41	=41	=41	=41	=41	=41	=41	=41	=41	=41	=41	=41	=41
4r	4B^^>\ 4d#	.	(>16ddd#\LL	(>16dddd#\LL	.	8.B\	.	.	8.d#\	.	.	8.b\	Po-	.	8.dd#\	.	.
.	.	.	16ccc#\	16cccc#\	.	.	.	.	.	.	.	.	.	.	.	.	.
.	.	.	16bb\	16bbb\	.	.	.	.	.	.	.	.	.	.	.	.	.
.	.	.	16aa#X\JJ)	16aaa#X\JJ)	.	16B\	.	.	16e\	.	.	16f#/	-le-	.	16cc#\	.	.
8r	8r	.	8bb\L	8bbb\L	.	8B\	.	.	8d#\	.	.	8f#/	-ca-	.	8b\	.	.
8FF#^^>/ 8F#	8A#X^^>\ 8c# 8f#	.	8ff#^^>\J 8aa# 8ccc#	8fff#^^>\J 8aaa# 8cccc#	.	8F#\	.	.	8A#X/	.	.	8f#/	-jąc	.	8cc#\	.	.
=42	=42	=42	=42	=42	=42	=42	=42	=42	=42	=42	=42	=42	=42	=42	=42	=42	=42
4BBB^^>/ 4BB	4F#^^>\ 4B 4d# 4f#	.	8ff#^^>\ 8bb 8ddd#	8fff#^^>\ 8bbb 8dddd#	.	4BB/	.	.	4B\	.	.	4f#/	chłop-	.	4dd#\	.	.
.	.	.	(>16dd#\LL	(>16ddd#\LL	.	.	.	.	.	.	.	.	.	.	.	.	.
.	.	.	16ee\JJ	16eee\JJ	.	.	.	.	.	.	.	.	.	.	.	.	.
4r	4r	.	8ff#\L)	8fff#\L)	.	4BB/	.	.	4d#\	.	.	4f#/	-ców	.	4b\	.	.
.	.	.	(>16dd#\L	(>16ddd#\L	.	.	.	.	.	.	.	.	.	.	.	.	.
.	.	.	16cc#\JJ	16ccc#\JJ	.	.	.	.	.	.	.	.	.	.	.	.	.
=43	=43	=43	=43	=43	=43	=43	=43	=43	=43	=43	=43	=43	=43	=43	=43	=43	=43
!	!	!	!	!	!	!LO:TX:b:i:t=rallent	!	!	!LO:TX:t=P:problem:cc# or dd#	!	!	!	!	!	!	!	!
[<2BBB/ [>2BB	(>4F#\ 4An 4d#	.	8b\L)	8bb\L)	.	2B\	.	.	(>4d#\	.	.	(<4a/	Bo-	.	(>4ff#\	Bo-	.
!	!	!	!	!LO:TX:b:i:t=rallent	!	!	!	!	!	!	!	!	!	!	!	!	!
.	.	.	(>16dd#\L	(>16ddd#\L	.	.	.	.	.	.	.	.	.	.	.	.	.
.	.	.	16cc#\JJ	16ccc#\JJ	.	.	.	.	.	.	.	.	.	.	.	.	.
!	!LO:TX:b:i:t=rallent	!	!	!	!	!	!	!	!LO:TX:b:i:t=rallent	!	!	!LO:TX:a:i:t=rallent	!	!	!LO:TX:b:i:t=rallent	!	!
.	4G#\ 4B 4e	.	8b\L)	8bb\L)	.	.	.	.	4e\)	.	.	4g#/)	.	.	4ee\	.	.
.	.	.	(>16ee\L	(>16eee\L	.	.	.	.	.	.	.	.	.	.	.	.	.
.	.	.	16cc#\JJ	16ccc#\JJ	.	.	.	.	.	.	.	.	.	.	.	.	.
=44	=44	=44	=44	=44	=44	=44	=44	=44	=44	=44	=44	=44	=44	=44	=44	=44	=44
!	!	!	!	!	!	!	!	!	!	!	!	!	!	!	!	!	!LO:HP:b
4BBB/] 4BB]	4A\) 4d# 4f#	.	8a\L)	8aa\L)	>	4B\	.	.	4f#\	.	.	2a/	-gu:	.	4dd#\)	.	>
.	.	.	(>16ff#\L	(>16fff#\L	.	.	.	.	.	.	.	.	.	.	.	.	.
.	.	.	16dd#\JJ	16ddd#\JJ	.	.	.	.	.	.	.	.	.	.	.	.	.
4r	4r	.	8cc#/L)	8ccc#\L)	.	4r	.	.	4r	.	.	.	.	.	4cc#\	-gu:	]
.	.	.	(<16a/L	(>16aa\L	]	.	.	.	.	.	.	.	.	.	.	.	.
.	.	.	16cc#/JJ)	16ccc#\JJ)	.	.	.	.	.	.	.	.	.	.	.	.	.
=45||	=45||	=45||	=45||	=45||	=45||	=45||	=45||	=45||	=45||	=45||	=45||	=45||	=45||	=45||	=45||	=45||	=45||
!	!LO:TX:a:i:t=Poco meno mosso	!	!	!LO:TX:a:i:t=Poco meno mosso	!	!	!	!	!	!	!	!	!	!LO:DY:b	!LO:TX:a:i:t=Poco meno mosso	!LO:DY:b	!
(<4EE/ 4E	(>16Gn\LL	p	(<8.gn/L 8.b	(<8.ggn/L 8.bb	p	2r	.	.	2r	.	.	8.gn/	.	p	8.b\	"Po-	p
.	16B\	.	.	.	.	.	.	.	.	.	.	.	.	.	.	.	.
.	16e\	.	.	.	.	.	.	.	.	.	.	.	.	.	.	.	.
.	16B\JJ	.	16f#/Jk) 16a#X	16ff#/Jk) 16aa#X	.	.	.	.	.	.	.	16f#/	.	.	16a#X/	-wra-	.
4EE-X/ 4E-X	16G\LL	.	8g/L 8b	8gg/L 8bb	.	.	.	.	.	.	.	8g/	.	.	8b\	-caj-	.
.	16B\	.	.	.	.	.	.	.	.	.	.	.	.	.	.	.	.
.	16G\	.	8g/J 8b	8gg/J 8bb	.	.	.	.	.	.	.	8g/	.	.	8b\	-cie	.
.	16B\JJ)	.	.	.	.	.	.	.	.	.	.	.	.	.	.	.	.
=46	=46	=46	=46	=46	=46	=46	=46	=46	=46	=46	=46	=46	=46	=46	=46	=46	=46
2DDn/) 2Dn	(>16Gn\LL	.	(>8b\L 8ddn	(>8bb\L 8dddn	.	2r	.	.	2r	.	.	8b\	.	.	8ddn\	w_ry-	.
.	16B\	.	.	.	.	.	.	.	.	.	.	.	.	.	.	.	.
.	16gn\	.	8ccn\J 8ee	8cccn\J 8eee	.	.	.	.	.	.	.	8ccn\	.	.	8ee\	-chły	.
.	16B\JJ	.	.	.	.	.	.	.	.	.	.	.	.	.	.	.	.
.	16G\LL	.	4b\) 4dd	4bb\) 4ddd	.	.	.	.	.	.	.	4b\	.	.	4dd\	czas	.
.	16B\	.	.	.	.	.	.	.	.	.	.	.	.	.	.	.	.
.	16dn\	.	.	.	.	.	.	.	.	.	.	.	.	.	.	.	.
.	16B\JJ)	.	.	.	.	.	.	.	.	.	.	.	.	.	.	.	.
!!LO:PB:g=original
=47	=47	=47	=47	=47	=47	=47	=47	=47	=47	=47	=47	=47	=47	=47	=47	=47	=47
2DDn/ 2Dn	(>16F#\LL	.	(<8.a/L 8.ccn	(<8.aa/L 8.cccn	.	2r	.	.	2r	.	.	8.a/	.	.	8.ccn\	I	.
.	16cn\	.	.	.	.	.	.	.	.	.	.	.	.	.	.	.	.
.	16dn\	.	.	.	.	.	.	.	.	.	.	.	.	.	.	.	.
.	16c\JJ	.	16gn/Jk) 16b	16ggn/Jk) 16bb	.	.	.	.	.	.	.	16gn/	.	.	16b\	w_pa-	.
.	16F#\LL	.	(<8f#'/L 8a	(<8ff#'/L 8aa	.	.	.	.	.	.	.	8f#/	.	.	8a/	-mię-	.
.	16Gn\	.	.	.	.	.	.	.	.	.	.	.	.	.	.	.	.
.	16A\	.	8e'/J) 8g	8ee'/J) 8gg	.	.	.	.	.	.	.	8e/	.	.	8gn/	-ci	.
.	16B\JJ	.	.	.	.	.	.	.	.	.	.	.	.	.	.	.	.
=48	=48	=48	=48	=48	=48	=48	=48	=48	=48	=48	=48	=48	=48	=48	=48	=48	=48
(<4DDn/ 4Dn	16cn\LL	.	(<8dn/L 8f#	(<8ddn/L 8ff#	.	2r	.	.	2r	.	.	8dn/	.	.	8f#/	miej-	.
.	16A\	.	.	.	.	.	.	.	.	.	.	.	.	.	.	.	.
.	16F#\	.	8a/J 8ccn	8aa/J 8cccn	.	.	.	.	.	.	.	8a/	.	.	8ccn\	-cie	.
.	16A\JJ	.	.	.	.	.	.	.	.	.	.	.	.	.	.	.	.
4DD#X/) 4D#X	16B\LL	.	8gn/L 8b	8ggn/L 8bb	.	.	.	.	.	.	.	(8gn/L	.	.	(<8b/L	nas,	.
.	16A\	.	.	.	.	.	.	.	.	.	.	.	.	.	.	.	.
.	16B\)	.	8f#/J) 8a	8ff#/J) 8aa	.	.	.	.	.	.	.	8f#/J)	.	.	8a/J)	.	.
.	16c\JJ	.	.	.	.	.	.	.	.	.	.	.	.	.	.	.	.
=49	=49	=49	=49	=49	=49	=49	=49	=49	=49	=49	=49	=49	=49	=49	=49	=49	=49
(<4EE/ 4E	(>16B\LL	.	(<8.e/L 8.gn	(<8.ee/L 8.ggn	.	2r	.	.	2r	.	.	8.e/	.	.	8.gn/	Po-	.
.	16A#X\	.	.	.	.	.	.	.	.	.	.	.	.	.	.	.	.
.	16B\	.	.	.	.	.	.	.	.	.	.	.	.	.	.	.	.
.	16cn\JJ	<	16d#X/Jk) 16f#	16dd#X/Jk) 16ff#	.	.	.	.	.	.	.	16d#X/	.	.	16f#/	-wra-	.
8DDn/L 8Dn	16B\LL	.	(<8e'/L 8g	(<8ee'/L 8gg	.	.	.	.	.	.	.	8e/	.	.	8g/	-caj-	.
.	16E\	.	.	.	.	.	.	.	.	.	.	.	.	.	.	.	.
8CCn/J) 8Cn	16An\	.	8f#'/J) 8a	8ff#'/J) 8aa	<	.	.	.	.	.	.	8f#/	.	.	8a/	-cie	.
.	16E\JJ	[	.	.	.	.	.	.	.	.	.	.	.	.	.	.	.
=50	=50	=50	=50	=50	=50	=50	=50	=50	=50	=50	=50	=50	=50	=50	=50	=50	=50
!	!	!	!	!	!	!	!	!	!	!	!	!	!	!LO:HP:b	!	!	!LO:HP:b
(<8BBB/L 8BB	16Gn\LL	.	(>8gn\L 8b	(>8ggn\L 8bb	.	2r	.	.	2r	.	.	8gn/	.	<	8b\	w_ry-	<
.	16A\	.	.	.	.	.	.	.	.	.	.	.	.	.	.	.	.
8EEE/J 8EE	16B\	.	8b\J 8ggn	8bb\J 8gggn	[	.	.	.	.	.	.	8b/	.	[	8ggn\	-chły	[
.	16E\JJ	.	.	.	.	.	.	.	.	.	.	.	.	.	.	.	.
8FFF#/L 8FF#	16e\LL	.	8a#X\L 8ff#	8aa#X\L 8fff#	.	.	.	.	.	.	.	(<8a#X/L	.	.	(8ff#\L	czas	.
.	16c#X\	.	.	.	.	.	.	.	.	.	.	.	.	.	.	.	.
8AAA#X/J) 8AA#X	16F#\	.	8cc#\J) 8ee	8ccc#\J) 8eee	.	.	.	.	.	.	.	8cc#/J)	.	.	8ee\J)	.	.
.	16Gn\JJ)	.	.	.	.	.	.	.	.	.	.	.	.	.	.	.	.
=51	=51	=51	=51	=51	=51	=51	=51	=51	=51	=51	=51	=51	=51	=51	=51	=51	=51
2BBB/ 2BB	(>16F#\LL	.	(>8b\L 8dd#	(>8bb\L 8ddd#	.	2r	.	.	2r	.	.	8b/	.	.	8dd#\	I	.
.	16f#\	.	.	.	.	.	.	.	.	.	.	.	.	.	.	.	.
!	!	!	!	!	!	!	!	!	!	!	!	!	!	!LO:HP:b	!	!	!LO:DY:a
.	16d#\	.	8an\J) 8ff#	8aan\J) 8fff#	.	.	.	.	.	.	.	8an/	.	>	8ff#\	w_pa-	>
.	16B\JJ	>	.	.	>	.	.	.	.	.	.	.	.	.	.	.	.
.	16c#\LL	.	(<8a/L 8b	(<8aa/L 8bb	.	.	.	.	.	.	.	8a/	.	.	8b\	-mię-	.
.	16d#\	.	.	.	.	.	.	.	.	.	.	.	.	.	.	.	.
.	16e\	.	8gn/J) 8ee	8ggn/J) 8eee	]	.	.	.	.	.	.	8gn/	.	]	8ee\	-ci	]
.	16B\JJ)	]]	.	.	.	.	.	.	.	.	.	.	.	.	.	.	.
!!LO:LB:g=original
=52	=52	=52	=52	=52	=52	=52	=52	=52	=52	=52	=52	=52	=52	=52	=52	=52	=52
!	!LO:TX:b:i:t=rallent	!	!	!	!	!	!	!	!	!	!	!	!	!	!	!	!
(<4FFF#/ 4FF#	(>16F#\LL	.	(<8e/L 8ddn	(<8ee/L 8dddn	.	2r	.	.	2r	.	.	(<8e/L	.	.	(>8ddn\L	miej-	.
.	16B\	.	.	.	.	.	.	.	.	.	.	.	.	.	.	.	.
!	!	!	!	!LO:TX:b:i:t=rallent	!	!	!	!	!	!	!	!	!	!	!	!	!
.	16A\	.	8a/J) 8ccn	8aa/J) 8ccc#	.	.	.	.	.	.	.	8a/J)	.	.	8ccn\J)	.	.
.	16E\JJ	.	.	.	.	.	.	.	.	.	.	.	.	.	.	.	.
*	*	*	*	*X8va	*	*	*	*	*	*	*	*	*	*	*	*	*
!	!	!	!	!	!	!	!	!	!	!	!	!LO:TX:a:i:t=rallent	!	!	!LO:TX:a:i:t=rallent	!	!
8AAA/L 8AA	16F#\LL	.	(<8cn/L 8b	(>8ccn\L 8bb	.	.	.	.	.	.	.	(<8e/L	.	.	(<8b/L	-cie	.
.	16Gn\	.	.	.	.	.	.	.	.	.	.	.	.	.	.	.	.
8CCn/J) 8Cn	16A\	.	8f#/J) 8a	8ff#\J) 8aa	.	.	.	.	.	.	.	8f#/J)	.	.	8a/J)	.	.
.	16E\JJ)	.	.	.	.	.	.	.	.	.	.	.	.	.	.	.	.
=53||	=53||	=53||	=53||	=53||	=53||	=53||	=53||	=53||	=53||	=53||	=53||	=53||	=53||	=53||	=53||	=53||	=53||
!	!LO:TX:a:i:t=Tempo Io.	!	!	!LO:TX:a:i:t=Tempo Io.	!	!LO:TX:a:i:t=Tempo Io	!	!LO:DY:a	!	!	!	!	!	!	!LO:TX:a:i:t=Tempo Io	!	!
8BBB/L 8BB	8F#\L	p	4d#/ 4b	4dd#\ 4bb	p	8.BB/	Sam	p	2r	.	.	4d#/	.	.	4b\	nas!"	.
16r	16r	.	.	.	.	.	.	.	.	.	.	.	.	.	.	.	.
16CC#'/Jk	16C#X'\Jk	.	.	.	.	16C#/	król	.	.	.	.	.	.	.	.	.	.
8CC#'/L	8C#'/L	.	4r	4r	.	8C#/	przo-	.	.	.	.	4r	.	.	4r	.	.
8DD#'/J	8D#'/J	.	.	.	.	8D#\	-dem	.	.	.	.	.	.	.	.	.	.
=54	=54	=54	=54	=54	=54	=54	=54	=54	=54	=54	=54	=54	=54	=54	=54	=54	=54
8FF#'/L	8F#'\L	.	4r	4r	.	8F#\	wojs-	.	2r	.	.	2r	.	.	2r	.	.
8GG#'/	8G#'\	.	.	.	.	8G#\	-ko	.	.	.	.	.	.	.	.	.	.
!	!	!	!	!	!LO:DY:rj	!	!	!	!	!	!	!	!	!	!	!	!
8EE'/	8E'\	.	8c#'/ 8f# 8a#X	8cc#'\ 8ff# 8aa#X	p	8E\	wie-	.	.	.	.	.	.	.	.	.	.
8CC#'/J	8C#'\J	.	8r	8r	.	8C#/	-dzie	.	.	.	.	.	.	.	.	.	.
=55	=55	=55	=55	=55	=55	=55	=55	=55	=55	=55	=55	=55	=55	=55	=55	=55	=55
8FF#'/L	8F#'\L	.	4r	4r	.	8F#\	woj-	.	2r	.	.	2r	.	.	2r	.	.
(<16FF#/L	(>16F#\L	.	.	.	.	(>16F#\LL	-sko	.	.	.	.	.	.	.	.	.	.
16GG#/JJ)	16G#\JJ)	.	.	.	.	16G#\JJ)	.	.	.	.	.	.	.	.	.	.	.
8EE'/L	8E'\L	.	8c#'/ 8f# 8a#X	8cc#'\ 8ff# 8aa#X	.	8E\	wie-	.	.	.	.	.	.	.	.	.	.
8CC#'/J	8C#'\J	.	8r	8r	.	8C#/	-dzie	.	.	.	.	.	.	.	.	.	.
=56	=56	=56	=56	=56	=56	=56	=56	=56	=56	=56	=56	=56	=56	=56	=56	=56	=56
!	!	!	!	!	!	!	!	!	!	!	!LO:DY:a	!	!	!	!	!	!
(<4DD#/	(>4D#\	.	8B'/L 8f#	8b'\ 8ff# 8bb	.	4D#\	wojs-	.	8.B\	Sam	p	2r	.	.	2r	.	.
.	.	.	16r	8r	.	.	.	.	.	.	.	.	.	.	.	.	.
!	!	!	!	!	!	!	!	!	!	!	!LO:HP:a:t=cresc	!	!	!	!	!	!
.	.	.	16c#'/Jk	.	.	.	.	.	16c#\	król	<	.	.	.	.	.	.
4EE/	4E\	.	8c#'/L	4r	.	4E\	-ko	.	8c#\	przo-	.	.	.	.	.	.	.
.	.	.	8d#'/J	.	.	.	.	.	8d#\	-dem	.	.	.	.	.	.	.
!!LO:PB:g=original
=57	=57	=57	=57	=57	=57	=57	=57	=57	=57	=57	=57	=57	=57	=57	=57	=57	=57
4DD#/	4D#\	.	8.f#'/L	2r	.	4D#\	wie-	.	8.f#\	wojs-	.	2r	.	.	2r	.	.
.	.	.	16e'/Jk	.	.	.	.	.	16e\	-ko	.	.	.	.	.	.	.
4FF#/)	4F#\)	.	8d#'/L	.	.	4F#\	-dzie	.	8d#\	wie-	.	.	.	.	.	.	.
.	.	.	8c#'/J	.	.	.	.	.	8c#\	-dzie	.	.	.	.	.	.	.
=58	=58	=58	=58	=58	=58	=58	=58	=58	=58	=58	=58	=58	=58	=58	=58	=58	=58
!	!	!	!	!	!	!	!	!	!	!	!LO:DY:a:rj	!	!	!	!	!	!
2BBB/	(>4BB/	.	8d#'/L	2r	.	(>4BB/	wie-	<	8d#\	wojs-	mf	2r	.	.	2r	.	.
!	!	!	!	!	!LO:HP:t=crescendo	!	!	!	!	!	!LO:DY:a	!	!	!	!	!	!
.	.	.	(<16d#/L	.	<	.	.	.	(>16d#\LL	-ko	<	.	.	.	.	.	.
.	.	.	16e/JJ)	.	.	.	.	.	16e\JJ)	.	.	.	.	.	.	.	.
!	!	!LO:HP:t=crescendo	!	!	!	!	!	!	!	!	!	!	!	!	!	!	!
.	4F#\)	<	8d#'/L	.	.	4F#\	.	.	8d#\	wie-	.	.	.	.	.	.	.
.	.	.	8B'/J	.	.	.	.	.	8B\	-dzie	.	.	.	.	.	.	.
=59	=59	=59	=59	=59	=59	=59	=59	=59	=59	=59	=59	=59	=59	=59	=59	=59	=59
*	*^	*	*	*	*	*	*	*	*	*	*	*	*	*	*	*	*
2BBB/ 2BB	(8E\L	4rEEyy	.	8c#'/L	4r	.	4E\)	.	.	8c#\	wojs-	.	2r	.	.	2r	.	.
.	8A\J)	.	.	(<16cc#/L	.	.	.	.	.	8A/	-ko	.	.	.	.	.	.	.
.	.	.	.	16a/JJ	.	.	.	.	.	.	.	.	.	.	.	.	.	.
.	(8c#/L	4D#\ 4A	.	8f#/L)	8r	.	4D#\	-dzie	.	8c#\	wie-	.	.	.	.	.	.	.
*	*	*	*	*	*8va	*	*	*	*	*	*	*	*	*	*	*	*	*
!	!	!	!	!	!	!LO:DY:rj	!	!	!	!	!	!	!	!	!	!	!	!
.	8B/J)	.	.	8b'/J	8bb\ 8bbb	ff	.	.	.	8B\	-dzie	.	.	.	.	.	.	.
*	*v	*v	*	*	*	*	*	*	*	*	*	*	*	*	*	*	*	*
=60	=60	=60	=60	=60	=60	=60	=60	=60	=60	=60	=60	=60	=60	=60	=60	=60	=60
!	!LO:TX:b:i:t=marcato.	!LO:DY:rj	!	!LO:TX:b:i:t=marcato	!	!	!	!LO:DY:rj	!	!	!LO:DY:rj	!	!	!LO:DY:rj	!	!	!LO:DY:rj
8EE^^>/ 8BB	8E^^>\ 8G# 8B	ff	8.e^>/L 8.g# 8.b	8.eee^\L 8.ggg# 8.bbb 8.eeee	.	8.E^>\	.	f	8.B^>\	.	f	8.g#^>/	Sam	f	8.ee^>\	.	f
8r	8r	.	.	.	.	.	.	.	.	.	.	.	.	.	.	.	.
.	.	.	16dd#/Jk	16ddd#\Jk 16dddd#	.	16E\	.	.	16B\	.	.	16g#/	król	.	16dd#\	.	.
8EE/L 8BB	8E\L 8G# 8B	.	8cc#/L	8ccc#\L 8cccc#	.	8E\	.	.	8B\	.	.	8g#/	przo-	.	8cc#\	.	.
8EE/J 8BB	8E\J 8G# 8B	.	8g#/J	8gg#\J 8ggg#	.	8E\	.	.	8B\	.	.	8e/	-dem	.	8g#/	.	.
=61	=61	=61	=61	=61	=61	=61	=61	=61	=61	=61	=61	=61	=61	=61	=61	=61	=61
8EE/L 8BB	8E\L 8G# 8B	.	8b\L	8bb\L 8bbb	.	8E\	.	.	8B\	.	.	8g#/	wojs-	.	8b\	.	.
8EE/ 8BB	8E\ 8G# 8B	.	8cc#\J	8ccc#\J 8cccc#	.	8E\	.	.	8B\	.	.	8g#/	-ko	.	8cc#\	.	.
8EE/ 8BB	8E\ 8G# 8B	.	8b/L	8bb\L 8bbb	.	8E\	.	.	8B\	.	.	8g#/	wie-	.	8b\	.	.
8EE/J 8BB	8E\J 8G# 8B	.	8g#/J	8gg#\J 8ggg#	.	8E\	.	.	8B\	.	.	8e/	-dzie	.	8g#/	.	.
!!LO:LB:g=original
=62	=62	=62	=62	=62	=62	=62	=62	=62	=62	=62	=62	=62	=62	=62	=62	=62	=62
8EE/L 8BB	8.E\L 8.A 8.B	.	8.f#/L	8.ff#\L 8.ccc# 8.fff#	.	8.E\	.	.	8.B\	.	.	8.d#/	Wojs-	.	8.f#/	.	.
8EE/ 8BB	.	.	.	.	.	.	.	.	.	.	.	.	.	.	.	.	.
.	16E\Jk 16F# 16B	.	16cc#/Jk	16ccc#\Jk 16cccc#	.	16E\	.	.	16B\	.	.	16a/	-ko	.	16cc#\	.	.
8EE/ 8BB	8E\L 8G# 8B	.	8b/L	8bb\L 8bbb	.	8E\	.	.	8B\	.	.	8g#/	wie-	.	8b\	.	.
8EE/J 8BB	8E\J 8A 8B	.	8a/J	8aa\J 8aaa	.	8E\	.	.	8B\	.	.	8f#/	-dzie,	.	8a/	.	.
=63	=63	=63	=63	=63	=63	=63	=63	=63	=63	=63	=63	=63	=63	=63	=63	=63	=63
8EE/L 8BB	8G#\L 8B 8e	.	8g#/L	8gg#\L 8ggg#	.	8E\	.	.	8B/	.	.	8e/	wojs-	.	8g#/	.	.
8EE/ 8BB	8F#\ 8A 8e	.	8f#/	8ff#\ 8fff#	.	8E\	.	.	8A/	.	.	8e/	-ko	.	8f#/	.	.
8EE/ 8BB	8E\ 8G# 8B	.	8g#/	8gg#\ 8ggg#	.	8E\	.	.	8B/	.	.	8e/	wie-	.	8g#/	.	.
8EE/J 8BB	8G#\J 8B	.	8e/J	8ee\J 8eee	.	8E\	.	.	8G#/	.	.	8B/	-dzie,	.	8e/	.	.
=64	=64	=64	=64	=64	=64	=64	=64	=64	=64	=64	=64	=64	=64	=64	=64	=64	=64
8.EE/L 8.E	8.A#X\L 8.c#	.	8.f#/L	8.ff#\L 8.fff#	.	8.E\	.	.	8.A#X/	.	.	8.c#/	A	.	8.f#/	.	.
16DD#/Jk 16D#	16B\Jk 16d#	.	16g#/Jk	16gg#\Jk 16ggg#	.	16D#\	.	.	16B/	.	.	16d#/	ka-	.	16g#/	.	.
8CC#/L 8C#	8c#\L 8e	.	8a#X/L	8aa#X\L 8aaa#X	.	8C#/	.	.	8c#\	.	.	8e/	-pe-	.	8a#X/	.	.
8EE/J 8E	8A#\J 8c#	.	8f#/J	8ff#\J 8fff#	.	8E\	.	.	8A#/	.	.	8c#/	-la	.	8f#/	.	.
=65	=65	=65	=65	=65	=65	=65	=65	=65	=65	=65	=65	=65	=65	=65	=65	=65	=65
8DD#/L 8D#	8F#\L 8B	.	8b/L	8bb\L 8bbb	.	8D#\	.	.	8B\	.	.	8f#/	grzmi	.	8b\	.	.
8EE/ 8E	8F#\ 8c#	.	8a#X/J	8aa#X\ 8aaa#X	.	8E\	.	.	8c#\	.	.	8f#/	na	.	8a#X/	.	.
8DD#/ 8D#	8F#\ 8B	.	8b\L	8bb\ 8bbb	.	8D#\	.	.	8B\	.	.	8f#/	prze-	.	8b\	.	.
8BBB/J 8BB	8F#\J 8B	.	8dd#\J	8ddd#\J 8dddd#	.	8BB/	.	.	8B\	.	.	8f#/	-dzie,	.	8dd#\	.	.
=66	=66	=66	=66	=66	=66	=66	=66	=66	=66	=66	=66	=66	=66	=66	=66	=66	=66
8AAA#X/L 8AA#X	8F#\L 8c# 8f#	.	8cc#\L	8ccc#\L 8cccc#	.	8AA#X/	.	.	8c#\	.	.	8f#/	A	.	8cc#\	.	.
8CC#/ 8C#	8F#\ 8A#X 8f#	.	8ee\	8eee\ 8eeee	.	8C#/	.	.	8A#X/	.	.	8f#/	ka-	.	8ee\	.	.
8FF#/ 8F#	8A#\ 8f#	.	8dd#\	8ddd#\ 8dddd#	.	8F#\	.	.	8A#/	.	.	8f#/	-pe-	.	8dd#\	.	.
8EE/J 8E	8F#\J 8A# 8f#	.	8cc#\J	8ccc#\J 8cccc#	.	8E\	.	.	8A#/	.	.	8f#/	-la	.	8cc#\	.	.
!!LO:PB:g=original
=67	=67	=67	=67	=67	=67	=67	=67	=67	=67	=67	=67	=67	=67	=67	=67	=67	=67
8DD#/L 8D#	8F#\L 8B 8f#	.	8ff#\L	8fff#\L 8ffff#	.	8D#\	.	.	8B\	.	.	8f#/	szła	.	8ff#\	.	.
8GG#/J 8G#	8B\J 8d# 8g#	.	8dd#\J	8ddd#\J 8dddd#	.	8G#\	.	.	8B\	.	.	8g#/	na	.	8dd#\	.	.
4CC#^^>/ 4C#	4G#^^>\ 4B 4e 4g#	.	4b^^>\ 4gg# 4bb	4ggg#^^>\ 4gggg#	.	(>4C#/	.	.	(>[>4e\	.	.	(<[<4b/	prze-	.	(>4gg#\	.	.
=68	=68	=68	=68	=68	=68	=68	=68	=68	=68	=68	=68	=68	=68	=68	=68	=68	=68
4GGG#^^>/ 4GG#	4E^^>\ 4B 4e	.	4b^^>\ 4ee	4eee^^>\ 4eeee	.	4G#\	.	.	4e\]	.	.	4b/]	.	.	4ee\	.	.
4FFF#/ 4FF#	8F#\L 8f#	.	8a#X/L 8dd#	8ddd#\L 8dddd#	.	4F#\)	.	.	8f#\L	.	.	8a#X/L)	.	.	8dd#\L	.	.
.	8F#\J 8e	.	8g#/J 8cc#	8ccc#\J 8cccc#	.	.	.	.	8e\J)	.	.	8g#/J	.	.	8cc#\J)	.	.
=69	=69	=69	=69	=69	=69	=69	=69	=69	=69	=69	=69	=69	=69	=69	=69	=69	=69
4BBB^^>/ 4BB	8F#\L 8B 8d#	.	8f#/ 8b 8dd#	8bb\ 8ddd# 8fff# 8bbb	sfz	4B\	.	.	4d#\	.	.	4f#/	-dzie,	.	4b\	.	.
.	8F#\ 8B 8d#	.	8r	8r	.	.	.	.	.	.	.	.	.	.	.	.	.
4FFF#^^>/ 4FF#	8F#\ 8B 8d#	.	4r	4r	.	4r	.	.	4r	.	.	4r	.	.	4r	.	.
.	8F#\J 8B 8d#	.	.	.	.	.	.	.	.	.	.	.	.	.	.	.	.
=70	=70	=70	=70	=70	=70	=70	=70	=70	=70	=70	=70	=70	=70	=70	=70	=70	=70
*rep	*rep	*	*rep	*rep	*	*	*	*	*	*	*	*	*	*	*	*	*
4BBB^^>/ 4BB	8F#\L 8B 8d#	.	8f#/ 8b 8dd#	8bb\ 8ddd# 8fff# 8bbb	sfzy	2r	.	.	2r	.	.	2r	.	.	2r	.	.
.	8F#\ 8B 8d#	.	8r	8r	.	.	.	.	.	.	.	.	.	.	.	.	.
4FFF#^^>/ 4FF#	8F#\ 8B 8d#	.	4r	4r	.	.	.	.	.	.	.	.	.	.	.	.	.
.	8F#\J 8B 8d#	.	.	.	.	.	.	.	.	.	.	.	.	.	.	.	.
*Xrep	*Xrep	*	*Xrep	*Xrep	*	*	*	*	*	*	*	*	*	*	*	*	*
=71	=71	=71	=71	=71	=71	=71	=71	=71	=71	=71	=71	=71	=71	=71	=71	=71	=71
4BBB^^>/ 4BB	8F#\L 8An 8B 8d#	.	4.f#^>/ 4.an 4.dd#	4.aan^>\ 4.ddd# 4.fff# 4.aaan	.	2r	.	.	2r	.	.	2r	.	.	2r	.	.
.	8F#\ 8A 8B 8d#	.	.	.	.	.	.	.	.	.	.	.	.	.	.	.	.
4FFF#^^>/ 4FF#	8F#\ 8A 8B 8d#	.	.	.	.	.	.	.	.	.	.	.	.	.	.	.	.
.	8F#\J 8A 8B 8d#	.	(>16gg#\LL	(>16ggg#\LL	.	.	.	.	.	.	.	.	.	.	.	.	.
.	.	.	16ff#\JJ	16fff#\JJ	.	.	.	.	.	.	.	.	.	.	.	.	.
=72	=72	=72	=72	=72	=72	=72	=72	=72	=72	=72	=72	=72	=72	=72	=72	=72	=72
4BBB^^>/ 4BB	8E\L 8G# 8B 8e	.	8ee\)	8eee\)	.	2r	.	.	2r	.	.	2r	.	.	2r	.	.
.	8E\ 8G# 8B 8e	.	4ccc#^^>\	4cccc#^^>\	.	.	.	.	.	.	.	.	.	.	.	.	.
4EEE^^>/ 4EE	8E\ 8G# 8B 8e	.	.	.	.	.	.	.	.	.	.	.	.	.	.	.	.
.	8E\J 8G# 8B 8e	.	(>16bb\LL	(>16bbb\LL	.	.	.	.	.	.	.	.	.	.	.	.	.
.	.	.	16gg#\JJ	16ggg#\JJ	.	.	.	.	.	.	.	.	.	.	.	.	.
*	*clefG2	*	*	*	*	*	*	*	*	*	*	*	*	*	*	*	*
=73	=73	=73	=73	=73	=73	=73	=73	=73	=73	=73	=73	=73	=73	=73	=73	=73	=73
4BBB^^>/ 4BB	8A/L 8B 8d# 8f#	.	16aa\LL	16aaa\LL	.	2r	.	.	2r	.	.	2r	.	.	2r	.	.
.	.	.	16gg#\	16ggg#\	.	.	.	.	.	.	.	.	.	.	.	.	.
.	8A/ 8B 8d# 8f#	.	16ff#\	16fff#\	.	.	.	.	.	.	.	.	.	.	.	.	.
.	.	.	16ee\JJ)	16eee\JJ)	.	.	.	.	.	.	.	.	.	.	.	.	.
4FFF#^^>/ 4FF#	8A/ 8B 8d# 8f#	.	8dd#'\L	8ddd#'\L	.	.	.	.	.	.	.	.	.	.	.	.	.
.	8A/J 8B 8d# 8f#	.	8b'\J	8bb'\J	.	.	.	.	.	.	.	.	.	.	.	.	.
!!LO:LB:g=original
=74	=74	=74	=74	=74	=74	=74	=74	=74	=74	=74	=74	=74	=74	=74	=74	=74	=74
4EE^^>/ 4E	4G#^^>/ 4B 4e	.	4ee'\	4gg#'\ 4bb 4eee	.	2r	.	.	2r	.	.	2r	.	.	2r	.	.
*	*clefF4	*	*	*	*	*	*	*	*	*	*	*	*	*	*	*	*
4EEE^^>/ 4EE	8E^^>/L	.	4r	4r	.	.	.	.	.	.	.	.	.	.	.	.	.
.	8Dn/J	.	.	.	.	.	.	.	.	.	.	.	.	.	.	.	.
=75	=75	=75	=75	=75	=75	=75	=75	=75	=75	=75	=75	=75	=75	=75	=75	=75	=75
!	!LO:TX:a:i:t=marcato	!LO:DY:rj	!	!	!	!	!	!LO:DY:a:rj	!	!	!	!	!	!	!	!	!
4AAA^^>/ 4AA	8.C#^>\L	f	4r	4r	.	8.C#/	Trom-	f	2r	.	.	2r	.	.	2r	.	.
.	16E\Jk	.	.	.	.	16E\	-bo-	.	.	.	.	.	.	.	.	.	.
4CC#^^>/ 4C#	8A\L	.	(>16ee\LL	(>16eee\LL	.	8A\	-nis-	.	.	.	.	.	.	.	.	.	.
.	.	.	16ff#\	16fff#\	.	.	.	.	.	.	.	.	.	.	.	.	.
.	8B\J	.	16ee\	16eee\	.	8B\	-ta	.	.	.	.	.	.	.	.	.	.
.	.	.	16ff#\JJ	16fff#\JJ	.	.	.	.	.	.	.	.	.	.	.	.	.
=76	=76	=76	=76	=76	=76	=76	=76	=76	=76	=76	=76	=76	=76	=76	=76	=76	=76
4EE^^>/ 4E	8G#\L	.	8ee\L)	8eee\L)	.	8G#\	rej	.	2r	.	.	2r	.	.	2r	.	.
.	8F#\	.	(>16ddn\L	(>16dddn\L	.	8F#\	tam	.	.	.	.	.	.	.	.	.	.
.	.	.	16cc#\JJ	16ccc#\JJ	.	.	.	.	.	.	.	.	.	.	.	.	.
4GGG#^^>/ 4GG#	8E\	.	8dd\L)	8ddd\L)	.	8E\	wie-	.	.	.	.	.	.	.	.	.	.
.	8Dn\J	.	8b'\J	8bb'\J	.	8Dn\	-dzie,	.	.	.	.	.	.	.	.	.	.
=77	=77	=77	=77	=77	=77	=77	=77	=77	=77	=77	=77	=77	=77	=77	=77	=77	=77
2AAA^^>/ 2AA	8.C#/L	.	8cc#\ 8ee	8ccc#\ 8eee	.	8.C#/	Do-	.	2r	.	.	2r	.	.	2r	.	.
.	.	.	4aa^>\	4aaa^>\	.	.	.	.	.	.	.	.	.	.	.	.	.
.	16BB/Jk	.	.	.	.	16BB/	-bosz	.	.	.	.	.	.	.	.	.	.
.	8C#/L	.	.	.	.	8C#/	przy	.	.	.	.	.	.	.	.	.	.
.	8Dn/J	.	16gg#\LL	16ggg#\LL	.	8Dn\	nim	.	.	.	.	.	.	.	.	.	.
.	.	.	(>16ff#\JJ	(>16fff#\JJ	.	.	.	.	.	.	.	.	.	.	.	.	.
=78	=78	=78	=78	=78	=78	=78	=78	=78	=78	=78	=78	=78	=78	=78	=78	=78	=78
2CC#^^>/ 2C#	8E\L	.	16ee\LL	16eee\LL	.	8E\	w_bę-	.	2r	.	.	2r	.	.	2r	.	.
.	.	.	16ff#\	16fff#\	.	.	.	.	.	.	.	.	.	.	.	.	.
.	8G#\	.	16ee\	16eee\	.	8G#\	-ben	.	.	.	.	.	.	.	.	.	.
.	.	.	16ff#\JJ)	16fff#\JJ)	.	.	.	.	.	.	.	.	.	.	.	.	.
.	8B\	.	8ee\	8eee\	.	8B\	wa-	.	.	.	.	.	.	.	.	.	.
*	*	*	*	*X8va	*	*	*	*	*	*	*	*	*	*	*	*	*
.	8A\J	.	8r	8r	.	8A\	-li	.	.	.	.	.	.	.	.	.	.
=79	=79	=79	=79	=79	=79	=79	=79	=79	=79	=79	=79	=79	=79	=79	=79	=79	=79
!	!	!	!	!	!	!	!	!	!	!	!LO:DY:rj	!	!	!	!	!	!
2FFF#^^>/ 2FF#	4A^^>\ 4c#	.	2r	2r	.	8.A\	.	.	8.c#\	Trom-	f	2r	.	.	2r	.	.
.	.	.	.	.	.	16A\	.	.	16c#\	-bo-	.	.	.	.	.	.	.
.	8F#\L 8f#	.	.	.	.	8F#\	.	.	8f#\	-nis-	.	.	.	.	.	.	.
.	8A\J 8e	.	.	.	.	8A\	.	.	8e\	-ta	.	.	.	.	.	.	.
!!LO:PB:g=original
=80	=80	=80	=80	=80	=80	=80	=80	=80	=80	=80	=80	=80	=80	=80	=80	=80	=80
2BBB^^>/ 2BB	8F#\L 8d#X	.	2r	(16ff#\LL	mf	8F#\	.	.	8d#\	rej	.	2r	.	.	2r	.	.
.	.	.	.	16gg#\	.	.	.	.	.	.	.	.	.	.	.	.	.
.	8A\ 8c#	.	.	16aa\	<	8A\	.	.	8c#\	tam	.	.	.	.	.	.	.
.	.	.	.	16bb\JJ	.	.	.	.	.	.	.	.	.	.	.	.	.
.	8G#\ 8B	.	.	16ccc#\LL	.	8G#\	.	.	8B\	wie-	.	.	.	.	.	.	.
.	.	.	.	16ddd#\	.	.	.	.	.	.	.	.	.	.	.	.	.
.	8F#\J 8A	.	.	16eee\	.	8E\	.	.	8A/	-dzie,	.	.	.	.	.	.	.
.	.	.	.	16fff#\JJ)	[	.	.	.	.	.	.	.	.	.	.	.	.
=81	=81	=81	=81	=81	=81	=81	=81	=81	=81	=81	=81	=81	=81	=81	=81	=81	=81
!	!	!	!	!	!	!	!	!	!	!	!	!	!	!LO:DY:rj	!	!	!
2EEE^^>/ 2EE	8E\L 8G#	.	8.e^</L	8ggg#\	f	8E\	.	.	8G#/	Do-	.	8.e/	Trom-	f	2r	.	.
.	8F#\ 8A	.	.	8r	.	8F#\	.	.	8A/	-bosz	.	.	.	.	.	.	.
.	.	.	16ddn/Jk	.	.	.	.	.	.	.	.	16ddn\	-bo-	.	.	.	.
.	8G#\ 8B	.	8b'/L	4r	.	8G#\	.	.	8B\	przy	.	8b/	-ni-	.	.	.	.
.	8A\J 8c#	.	8a'/J	.	.	8A\	.	.	8c#\	nim	.	8a/	-sta	.	.	.	.
=82	=82	=82	=82	=82	=82	=82	=82	=82	=82	=82	=82	=82	=82	=82	=82	=82	=82
4EE/	4B\ 4dn	.	8g#'/L	(>16ee\LL	.	2B\	.	.	2dn\	w_bę-	.	8g#/	rej	.	2r	.	.
.	.	.	.	16ff#\	.	.	.	.	.	.	.	.	.	.	.	.	.
.	.	.	8f#'/	16ee\	.	.	.	.	.	.	.	8f#/	tam	.	.	.	.
.	.	.	.	16ff#\JJ)	.	.	.	.	.	.	.	.	.	.	.	.	.
[<4EE^^>/	(>16E\LL	.	8g#'/	8ee\	.	.	.	.	.	.	.	8g#/	wie-	.	.	.	.
.	16G#\	.	.	.	.	.	.	.	.	.	.	.	.	.	.	.	.
.	16B\	.	8e'/J	8r	.	.	.	.	.	.	.	8e/	-dzie,	.	.	.	.
.	16d\JJ)	.	.	.	.	.	.	.	.	.	.	.	.	.	.	.	.
=83	=83	=83	=83	=83	=83	=83	=83	=83	=83	=83	=83	=83	=83	=83	=83	=83	=83
4EE/]	4A\ 4c#	.	8.a^</L	8r	.	2A\	.	.	2c#\	-ben	.	8.a/	Do-	.	2r	.	.
.	.	.	.	(>16cc#\LL	.	.	.	.	.	.	.	.	.	.	.	.	.
.	.	.	16g#'/Jk	16ddn\JJ	.	.	.	.	.	.	.	16g#/	-bosz	.	.	.	.
4AAA/ 4AA	(>16E\LL	.	8f#'/L	8ee\)	.	.	.	.	.	.	.	8f#/	przy	.	.	.	.
.	16F#\	.	.	.	.	.	.	.	.	.	.	.	.	.	.	.	.
.	16A\	.	8e'/J	8r	.	.	.	.	.	.	.	8e/	nim	.	.	.	.
.	16c#\JJ)	.	.	.	.	.	.	.	.	.	.	.	.	.	.	.	.
=84	=84	=84	=84	=84	=84	=84	=84	=84	=84	=84	=84	=84	=84	=84	=84	=84	=84
!	!	!	!	!	!	!	!	!LO:HP:b	!	!	!LO:HP:b	!	!	!LO:DY:a	!	!	!
2BBB/ 2BB	4.F#\ 4.A	>	8d#X'/L	8r	.	2F#\	.	>]	2A/	wa-	>]	8d#X/	w bę-	>	2r	.	.
.	.	.	8f#'/	(16ff#\LL	>	.	.	.	.	.	.	8f#/	-ben	.	.	.	.
.	.	.	.	16gg#\JJ	.	.	.	.	.	.	.	.	.	.	.	.	.
.	.	.	8b'/	8aa\L)	.	.	.	.	.	.	.	8b/	wa-	]	.	.	.
.	8F#\ 8A 8d#X	]]	8dd#'/J	8ddd#\J	]	.	.	.	.	.	.	8d#/	-li,	.	.	.	.
=85	=85	=85	=85	=85	=85	=85	=85	=85	=85	=85	=85	=85	=85	=85	=85	=85	=85
!	!	!	!	!	!	!	!	!	!	!	!	!	!	!LO:DY:rj	!	!	!LO:DY:rj
8CCn/ 8Cn	8E\ 8Gn 8e	p	8.ee'\L	8.eee'\L	p	4E\	.	.	4Gn/	-li.	.	8.e/	A	p	8.ee\	A	p
8r	8r	.	.	.	.	.	.	.	.	.	.	.	.	.	.	.	.
.	.	.	16b'\Jk	16bb'\Jk	.	.	.	.	.	.	.	16e/	gdy	.	16b\	gdy	.
8C'/L	(>16G\LL	.	8b'\L	8bb'\L	.	4r	.	.	4r	.	.	8e/	na-	.	8b\	na-	.
.	16F#\	.	.	.	.	.	.	.	.	.	.	.	.	.	.	.	.
8C'/J	16G\	.	8ddn'\J	8dddn'\J	.	.	.	.	.	.	.	8e/	-szą	.	8ddn\	-szą	.
.	16G#X\JJ)	.	.	.	.	.	.	.	.	.	.	.	.	.	.	.	.
!!LO:PB:g=original
=86	=86	=86	=86	=86	=86	=86	=86	=86	=86	=86	=86	=86	=86	=86	=86	=86	=86
8Cn'/L	(>16A\LL	.	8ccn'\L	8cccn'\L	.	2r	.	.	2r	.	.	8fn/	.	.	8ccn\	wieś	.
.	16cn\	.	.	.	.	.	.	.	.	.	.	.	.	.	.	.	.
8C'/	16fn\	.	8b'\	8bb'\	.	.	.	.	.	.	.	8f/	.	.	8b\	mi-	.
.	16c\JJ	.	.	.	.	.	.	.	.	.	.	.	.	.	.	.	.
8C'/	16f\LL	.	8cc'\	8ccc'\	.	.	.	.	.	.	.	8f/	.	.	8cc\	-ja-	.
.	16c\	.	.	.	.	.	.	.	.	.	.	.	.	.	.	.	.
8C'/J	16A\	.	8a'\J	8aa'\J	.	.	.	.	.	.	.	8f/	.	.	8a/	-li,	.
.	16c\JJ	.	.	.	.	.	.	.	.	.	.	.	.	.	.	.	.
=87	=87	=87	=87	=87	=87	=87	=87	=87	=87	=87	=87	=87	=87	=87	=87	=87	=87
8Cn'/L	16B\LL	.	8.fn^>/L 8.ddn	8.ffn^>\L 8.dddn	.	2r	.	.	2r	.	.	8.fn/	.	.	8.ddn\	Hej,	.
.	16A\	.	.	.	.	.	.	.	.	.	.	.	.	.	.	.	.
8C'/	16Gn\	.	.	.	.	.	.	.	.	.	.	.	.	.	.	.	.
.	16A\JJ	.	16dn'/Jk 16f	16ddn'\Jk 16ff	.	.	.	.	.	.	.	16dn/	.	.	16fn/	z_kra-	.
8C'/	16G\LL	.	8d'/L 8f	8dd'\L 8ff	.	.	.	.	.	.	.	8d/	.	.	8f/	-kow-	.
.	16A\	.	.	.	.	.	.	.	.	.	.	.	.	.	.	.	.
8C'/J	16B\	.	8f'/J 8a	8ff'\J 8aa	.	.	.	.	.	.	.	8f/	.	.	8a/	-ska	.
.	16G\JJ	.	.	.	.	.	.	.	.	.	.	.	.	.	.	.	.
=88	=88	=88	=88	=88	=88	=88	=88	=88	=88	=88	=88	=88	=88	=88	=88	=88	=88
8Cn'/	8cn\)	.	8e'/L 8gn	8ee'\L 8ggn	.	2r	.	.	2r	.	.	8e/	.	.	8gn/	za-	.
8r	8r	.	8d#X'/J 8f#X	8dd#X'\ 8ff#X	.	.	.	.	.	.	.	8d#X/	.	.	8f#X/	-śpie-	.
4CCn/ 4C	(>8Gn\L	.	8e'/L 8g	8ee'\ 8gg	.	.	.	.	.	.	.	8e/	.	.	8g#X/	-wa-	.
.	8A\J)	.	8e'/J 8ccn	8ee'\J 8cccn	.	.	.	.	.	.	.	8e/	.	.	8cc#\	-li:	.
=89||	=89||	=89||	=89||	=89||	=89||	=89||	=89||	=89||	=89||	=89||	=89||	=89||	=89||	=89||	=89||	=89||	=89||
!	!LO:TX:a:i:t=Meno mosso	!	!	!LO:TX:a:i:t=Meno mosso	!	!	!	!LO:DY:rj	!	!	!LO:DY:rj	!	!	!	!LO:TX:a:i:t=Meno mosso	!	!
[<2BBB/ [>2BB	8G#X\L 8B	mf	(>4e/	2ee\ 2eee	.	8G#X\	.	f	8B\	"Da-	f	2e/	.	.	2ee\	"Da-	.
!	!LO:TX:b:i:t=espressivo	!	!	!	!	!	!	!	!LO:TX:a:i:t=Meno mosso	!	!	!	!	!	!	!	!
.	8G#\J 8B	.	.	.	.	8G#\	.	.	8B\	-na,	.	.	.	.	.	.	.
.	(<8qd#/	.	.	.	.	.	.	.	(<8qd#/	.	.	.	.	.	.	.	.
.	(>8.A\L) 8.c#	.	4b\)	.	.	8.A\	.	.	8.c#\)	hej	.	.	.	.	.	.	.
.	16G#\Jk) 16B	.	.	.	.	16G#\	.	.	16B\	ta	.	.	.	.	.	.	.
=90	=90	=90	=90	=90	=90	=90	=90	=90	=90	=90	=90	=90	=90	=90	=90	=90	=90
4BBB/] 4BB]	8G#\ 8e	.	4b\	4ee\ 4bb	.	8G#\	.	.	8e\	da-	.	4e/	.	.	4b\	-na"	.
.	4G#^>\ 4B	.	.	.	.	4G#^>\	.	.	4B^>\	-na,	.	.	.	.	.	.	.
(<8EE/L	.	.	4r	4r	.	.	.	.	.	.	.	4r	.	.	4r	.	.
8GG#/J)	8r	.	.	.	.	8r	.	.	8r	.	.	.	.	.	.	.	.
!!LO:PB:g=original
=91	=91	=91	=91	=91	=91	=91	=91	=91	=91	=91	=91	=91	=91	=91	=91	=91	=91
4.BBB/ 4.BB	(>8D#\L 8F#	.	2r	2r	.	8D#\	.	.	8F#/	Oj-	.	2r	.	.	2r	.	.
.	8G#\J 8B	.	.	.	.	8G#\	.	.	8B\	-czyz-	.	.	.	.	.	.	.
.	8.F#\L) 8.A	.	.	.	.	8.F#\	.	.	8.A/	-no	.	.	.	.	.	.	.
8BBB/ 8BB	.	.	.	.	.	.	.	.	.	.	.	.	.	.	.	.	.
.	16A'\Jk 16c#	.	.	.	.	16A\	.	.	16c#\	ko-	.	.	.	.	.	.	.
=92	=92	=92	=92	=92	=92	=92	=92	=92	=92	=92	=92	=92	=92	=92	=92	=92	=92
4EE/ 4BB	8A\ 8c#	.	8r	8r	.	8A\	.	.	8c#\	-cha-	.	2r	.	.	2r	.	.
.	4G#^>\ 4B	.	(<16g#/LL	(>16gg#\LL	f	4G#\	.	.	4B\	-na!"	.	.	.	.	.	.	.
.	.	.	16f#/JJ	16ff#\JJ	.	.	.	.	.	.	.	.	.	.	.	.	.
4r	.	.	8e/L)	8ee\L)	<	.	.	.	.	.	.	.	.	.	.	.	.
.	8r	.	8g#'/J	8gg#'\J	.	8r	.	.	8r	.	.	.	.	.	.	.	.
=93	=93	=93	=93	=93	=93	=93	=93	=93	=93	=93	=93	=93	=93	=93	=93	=93	=93
!	!	!	!	!	!	!	!	!	!	!	!	!	!	!LO:DY:rj	!	!	!LO:DY:a:rj
4EE/	4E\ 4B	<	8.g#/L 8.b	8.gg#\L 8.bb	[	8.E\	.	.	8.B\	Da-	.	8.g#/	.	f	8.b\	Da-	f
!	!	!	!	!	!	!	!	!	!	!	!	!	!	!LO:HP:b	!	!	!
.	.	.	16f##X/Jk 16a#X	16ff##X\Jk 16aa#X	.	16E\	.	.	16B\	-na,	.	16f##X/	.	<	16a#X/	-na,	.
!	!	!	!	!	!	!	!	!LO:HP:b	!	!	!LO:HP:b	!	!	!	!	!	!LO:HP:b
8EE/L	8E\L 8B	.	8g#/L 8b	8gg#\L 8bb	.	8E\	.	<	8e\	hej,	<	8g#/	.	.	8b\	hej,	<
8GGG#/J 8GG#	8E\J 8B 8e	[	8g#/J 8b 8ee	8gg#\J 8eee	.	8G#\	.	[	8e\	ta	[	8b\	.	[	8ee\	ta	[
=94	=94	=94	=94	=94	=94	=94	=94	=94	=94	=94	=94	=94	=94	=94	=94	=94	=94
*tremolo	*	*	*	*8va	*	*	*	*	*	*	*	*	*	*	*	*	*
!	!	!LO:DY:rj	!	!	!LO:DY:rj	!	!	!LO:DY:b:rj	!	!	!LO:DY:b:rj	!	!	!LO:DY:b:rj	!	!	!LO:DY:b:rj
32FFF#/LLL	2E^^>\ 2A#X 2c# 2e	ff	2a#X^^>\ 2cc# 2ee 2gg#	2aa#X^^>\ 2ccc# 2eee 2ggg#	ff	2F#\	.	ff	2e\	da-	ff	2a#X/	.	ff	2gg#\	da-	ff
32FF#/	.	.	.	.	.	.	.	.	.	.	.	.	.	.	.	.	.
32FFF#/	.	.	.	.	.	.	.	.	.	.	.	.	.	.	.	.	.
32FF#/	.	.	.	.	.	.	.	.	.	.	.	.	.	.	.	.	.
32FFF#/	.	.	.	.	.	.	.	.	.	.	.	.	.	.	.	.	.
32FF#/	.	.	.	.	.	.	.	.	.	.	.	.	.	.	.	.	.
32FFF#/	.	.	.	.	.	.	.	.	.	.	.	.	.	.	.	.	.
32FF#/	.	.	.	.	.	.	.	.	.	.	.	.	.	.	.	.	.
32FFF#/	.	.	.	.	.	.	.	.	.	.	.	.	.	.	.	.	.
32FF#/	.	.	.	.	.	.	.	.	.	.	.	.	.	.	.	.	.
32FFF#/	.	.	.	.	.	.	.	.	.	.	.	.	.	.	.	.	.
32FF#/	.	.	.	.	.	.	.	.	.	.	.	.	.	.	.	.	.
32FFF#/	.	.	.	.	.	.	.	.	.	.	.	.	.	.	.	.	.
32FF#/	.	.	.	.	.	.	.	.	.	.	.	.	.	.	.	.	.
32FFF#/	.	.	.	.	.	.	.	.	.	.	.	.	.	.	.	.	.
32FF#/JJJ	.	.	.	.	.	.	.	.	.	.	.	.	.	.	.	.	.
*	*	*	*	*X8va	*	*	*	*	*	*	*	*	*	*	*	*	*
=95	=95	=95	=95	=95	=95	=95	=95	=95	=95	=95	=95	=95	=95	=95	=95	=95	=95
32FFF#/LLL	[<2E^^>\ [<2A#X [>2c# [>2e	.	[<2a#X^^>/ [>2cc#	[<2ee^^>\ [>2aa#X [>2ccc#	.	[>2F#\	.	.	[>2e\	-na,	.	[<2a#X/	.	.	[>2cc#\	-na,	.
32FF#/	.	.	.	.	.	.	.	.	.	.	.	.	.	.	.	.	.
32FFF#/	.	.	.	.	.	.	.	.	.	.	.	.	.	.	.	.	.
32FF#/	.	.	.	.	.	.	.	.	.	.	.	.	.	.	.	.	.
32FFF#/	.	.	.	.	.	.	.	.	.	.	.	.	.	.	.	.	.
32FF#/	.	.	.	.	.	.	.	.	.	.	.	.	.	.	.	.	.
32FFF#/	.	.	.	.	.	.	.	.	.	.	.	.	.	.	.	.	.
32FF#/	.	.	.	.	.	.	.	.	.	.	.	.	.	.	.	.	.
32FFF#/	.	.	.	.	.	.	.	.	.	.	.	.	.	.	.	.	.
32FF#/	.	.	.	.	.	.	.	.	.	.	.	.	.	.	.	.	.
32FFF#/	.	.	.	.	.	.	.	.	.	.	.	.	.	.	.	.	.
32FF#/	.	.	.	.	.	.	.	.	.	.	.	.	.	.	.	.	.
32FFF#/	.	.	.	.	.	.	.	.	.	.	.	.	.	.	.	.	.
32FF#/	.	.	.	.	.	.	.	.	.	.	.	.	.	.	.	.	.
32FFF#/	.	.	.	.	.	.	.	.	.	.	.	.	.	.	.	.	.
32FF#/JJJ	.	.	.	.	.	.	.	.	.	.	.	.	.	.	.	.	.
*Xtremolo	*	*	*	*	*	*	*	*	*	*	*	*	*	*	*	*	*
!!LO:LB:g=original
=96	=96	=96	=96	=96	=96	=96	=96	=96	=96	=96	=96	=96	=96	=96	=96	=96	=96
4FFF#/	4E\] 4A#] 4c#] 4e]	.	4a#/] 4cc#]	4ee\] 4aa#] 4ccc#]	.	4F#\]	.	.	4e\]	.	.	4a#/]	.	.	4cc#\]	.	.
8r;>	8r;>	.	8r;>	8r;>	.	8r;>	.	.	8r;>	.	.	8r;>	.	.	8r;>	.	.
8FFF#/ 8FF#	8E\ 8A#X 8c#	.	8a#X/ 8cc#	8aa#X\ 8ccc#	.	8F#\	.	.	8e\	.	.	8a#X/	Oj-	.	8cc#\	.	.
=97	=97	=97	=97	=97	=97	=97	=97	=97	=97	=97	=97	=97	=97	=97	=97	=97	=97
4.FFF#^^>/ 4.FF#	4.E^^>\ 4.A#X 4.c#	.	4a#X^^>\ 4ee	4aa#X^^>\ 4eee	.	4F#\	.	.	4c#\	.	.	4a#X/	-czyz-	.	4ee\	.	.
.	.	.	8a#\L 8dd#	8aa#\L 8ddd#	.	8F#\	.	.	8f#\	.	.	8a#/	-no	.	8dd#\	.	.
8FF#/	8E\ 8A# 8c#	.	8a#\J 8ee	8aa#\J 8eee	.	8F#\	.	.	8c#\	.	.	8a#/	ko-	.	8ee\	.	.
!!LO:LB:g=original
=98	=98	=98	=98	=98	=98	=98	=98	=98	=98	=98	=98	=98	=98	=98	=98	=98	=98
*tremolo	*	*	*	*	*	*	*	*	*	*	*	*	*	*	*	*	*
32BBB/LLL	2B^^>\ 2c#	.	2an^^>/ 2ff#	2aan^^>\ 2fff#	.	[>2B\	.	.	(>2c#\	.	.	[<2an/	-cha-	.	(>2ff#\	.	.
32BB/	.	.	.	.	.	.	.	.	.	.	.	.	.	.	.	.	.
32BBB/	.	.	.	.	.	.	.	.	.	.	.	.	.	.	.	.	.
32BB/	.	.	.	.	.	.	.	.	.	.	.	.	.	.	.	.	.
32BBB/	.	.	.	.	.	.	.	.	.	.	.	.	.	.	.	.	.
32BB/	.	.	.	.	.	.	.	.	.	.	.	.	.	.	.	.	.
32BBB/	.	.	.	.	.	.	.	.	.	.	.	.	.	.	.	.	.
32BB/	.	.	.	.	.	.	.	.	.	.	.	.	.	.	.	.	.
32BBB/	.	.	.	.	.	.	.	.	.	.	.	.	.	.	.	.	.
32BB/	.	.	.	.	.	.	.	.	.	.	.	.	.	.	.	.	.
32BBB/	.	.	.	.	.	.	.	.	.	.	.	.	.	.	.	.	.
32BB/	.	.	.	.	.	.	.	.	.	.	.	.	.	.	.	.	.
32BBB/	.	.	.	.	.	.	.	.	.	.	.	.	.	.	.	.	.
32BB/	.	.	.	.	.	.	.	.	.	.	.	.	.	.	.	.	.
32BBB/	.	.	.	.	.	.	.	.	.	.	.	.	.	.	.	.	.
32BB/JJJ	.	.	.	.	.	.	.	.	.	.	.	.	.	.	.	.	.
=99	=99	=99	=99	=99	=99	=99	=99	=99	=99	=99	=99	=99	=99	=99	=99	=99	=99
32BBB/LLL	2B^^>\ 2e	.	2a^^>/ 2cc#	2ee^^>\ 2aa 2ccc#	.	2B\_>	.	.	2e\	.	.	2a/_<	.	.	2cc#\	.	.
32BB/	.	.	.	.	.	.	.	.	.	.	.	.	.	.	.	.	.
32BBB/	.	.	.	.	.	.	.	.	.	.	.	.	.	.	.	.	.
32BB/	.	.	.	.	.	.	.	.	.	.	.	.	.	.	.	.	.
32BBB/	.	.	.	.	.	.	.	.	.	.	.	.	.	.	.	.	.
32BB/	.	.	.	.	.	.	.	.	.	.	.	.	.	.	.	.	.
32BBB/	.	.	.	.	.	.	.	.	.	.	.	.	.	.	.	.	.
32BB/	.	.	.	.	.	.	.	.	.	.	.	.	.	.	.	.	.
32BBB/	.	.	.	.	.	.	.	.	.	.	.	.	.	.	.	.	.
32BB/	.	.	.	.	.	.	.	.	.	.	.	.	.	.	.	.	.
32BBB/	.	.	.	.	.	.	.	.	.	.	.	.	.	.	.	.	.
32BB/	.	.	.	.	.	.	.	.	.	.	.	.	.	.	.	.	.
32BBB/	.	.	.	.	.	.	.	.	.	.	.	.	.	.	.	.	.
32BB/	.	.	.	.	.	.	.	.	.	.	.	.	.	.	.	.	.
32BBB/	.	.	.	.	.	.	.	.	.	.	.	.	.	.	.	.	.
32BB/JJJ	.	.	.	.	.	.	.	.	.	.	.	.	.	.	.	.	.
=100	=100	=100	=100	=100	=100	=100	=100	=100	=100	=100	=100	=100	=100	=100	=100	=100	=100
32BBB/LLL	2F#^^>\ 2A 2d# 2f#	.	2a^^>/ 2dd#	2ff#^^>\ 2aa 2ddd#	.	2B\]	.	.	2f#\)	.	.	2a/]	.	.	2dd#\)	.	.
32BB/	.	.	.	.	.	.	.	.	.	.	.	.	.	.	.	.	.
32BBB/	.	.	.	.	.	.	.	.	.	.	.	.	.	.	.	.	.
32BB/	.	.	.	.	.	.	.	.	.	.	.	.	.	.	.	.	.
32BBB/	.	.	.	.	.	.	.	.	.	.	.	.	.	.	.	.	.
32BB/	.	.	.	.	.	.	.	.	.	.	.	.	.	.	.	.	.
32BBB/	.	.	.	.	.	.	.	.	.	.	.	.	.	.	.	.	.
32BB/	.	.	.	.	.	.	.	.	.	.	.	.	.	.	.	.	.
32BBB/	.	.	.	.	.	.	.	.	.	.	.	.	.	.	.	.	.
32BB/	.	.	.	.	.	.	.	.	.	.	.	.	.	.	.	.	.
32BBB/	.	.	.	.	.	.	.	.	.	.	.	.	.	.	.	.	.
32BB/	.	.	.	.	.	.	.	.	.	.	.	.	.	.	.	.	.
32BBB/	.	.	.	.	.	.	.	.	.	.	.	.	.	.	.	.	.
32BB/	.	.	.	.	.	.	.	.	.	.	.	.	.	.	.	.	.
32BBB/	.	.	.	.	.	.	.	.	.	.	.	.	.	.	.	.	.
32BB/JJJ	.	.	.	.	.	.	.	.	.	.	.	.	.	.	.	.	.
*Xtremolo	*	*	*	*	*	*	*	*	*	*	*	*	*	*	*	*	*
=101||	=101||	=101||	=101||	=101||	=101||	=101||	=101||	=101||	=101||	=101||	=101||	=101||	=101||	=101||	=101||	=101||	=101||
!	!	!	!	!	!	!	!	!	!	!	!	!	!	!	!LO:TX:a:i:t=Tempo Io	!	!
8EE^^>/L 8BB	8E^^>\L 8G# 8B 8e	.	8g#^^>/ 8b 8ee	8gg#^^>\ 8bb 8eee	.	4E\	.	.	4e\	.	.	4g#/	-na!"	.	4ee\	.	.
!	!LO:TX:a:i:t=Tempo Io	!LO:DY:t=sempre f	!	!LO:TX:a:i:t=Tempo Io	!	!	!	!	!	!	!	!	!	!	!	!	!
8EE/ 8BB	8E\ 8G# 8B	f	8r	8r	.	.	.	.	.	.	.	.	.	.	.	.	.
8EE/ 8BB	8E\ 8G# 8B	.	4r	4r	.	4r	.	.	4r	.	.	4r	.	.	4r	.	.
8EE/J 8BB	8E\J 8G# 8B	.	.	.	.	.	.	.	.	.	.	.	.	.	.	.	.
=102	=102	=102	=102	=102	=102	=102	=102	=102	=102	=102	=102	=102	=102	=102	=102	=102	=102
8EE/L 8BB	8E\L 8G# 8B	.	8e^^>/ 8g# 8b	8ee^^>\ 8gg# 8bb 8eee	.	2r	.	.	2r	.	.	2r	.	.	2r	.	.
8EE/ 8BB	8E\ 8G# 8B	.	8r	8r	.	.	.	.	.	.	.	.	.	.	.	.	.
8EE/ 8BB	8E\ 8G# 8B	.	4r	4r	.	.	.	.	.	.	.	.	.	.	.	.	.
8EE/J 8BB	8E\J 8G# 8B	.	.	.	.	.	.	.	.	.	.	.	.	.	.	.	.
!!LO:LB:g=original
=103	=103	=103	=103	=103	=103	=103	=103	=103	=103	=103	=103	=103	=103	=103	=103	=103	=103
!	!	!	!	!	!LO:DY:i:t=sempre f	!	!	!LO:DY:a:rj	!	!	!LO:DY:rj	!	!	!LO:DY:rj	!	!	!LO:DY:rj
8EE^^>/L 8BB	8F#^^>\L 8A 8d#	.	4.dd#^^\	4.ddd#^^\	f	8F#\	.	f	8F#/	.	f	8f#/	Da-	f	8f#/	.	f
8EE/ 8BB	8F#\ 8A 8d#	.	.	.	.	(>16G#\LL	.	.	(<16G#/LL	.	.	(<16g#/LL	-na,	.	(<16g#/LL	.	.
.	.	.	.	.	.	16A\JJ)	.	.	16A/JJ)	.	.	16a/JJ)	.	.	16a/JJ)	.	.
8EE/ 8BB	8F#\ 8A 8d#	.	.	.	.	8B\	.	.	8B\	.	.	8b\	hej	.	8b\	.	.
8EE/J 8BB	8D#\J 8A 8c#	.	(<16cc#/LL	(>16ccc#\LL	.	8c#\	.	.	8c#\	.	.	8cc#\	ta	.	8cc#\	.	.
.	.	.	16a/JJ	16aa\JJ	.	.	.	.	.	.	.	.	.	.	.	.	.
=104	=104	=104	=104	=104	=104	=104	=104	=104	=104	=104	=104	=104	=104	=104	=104	=104	=104
8EE/L 8BB	8E\L 8G# 8B	.	16g#/LL	16gg#\LL	.	(>16d#\LL	.	.	(>16d#\LL	.	.	(>16dd#\LL	da-	.	(>16dd#\LL	.	.
.	.	.	16a/	16aa\	.	16c#\JJ)	.	.	16c#\JJ)	.	.	16cc#\JJ)	.	.	16cc#\JJ)	.	.
8EE/ 8BB	8E\ 8G# 8B	.	16g#/	16gg#\	.	4B\	.	.	4B\	.	.	4b\	-na	.	4b\	.	.
.	.	.	16f#/JJ	16ff#\JJ	.	.	.	.	.	.	.	.	.	.	.	.	.
8EE/ 8BB	8E\ 8G# 8B	.	8e/L)	8ee\L)	.	.	.	.	.	.	.	.	.	.	.	.	.
8EE/J 8BB	8E\J 8G# 8B	.	8b'/J	8bb'\J	.	8G#\	.	.	8G#/	.	.	8g#/	Oj-	.	8g#/	.	.
=105	=105	=105	=105	=105	=105	=105	=105	=105	=105	=105	=105	=105	=105	=105	=105	=105	=105
8EE^^>/L 8AA	8E^^>\L 8A 8c#	.	4.cc#^^>\	4.ccc#^^>\	.	4A\	.	.	4A/	.	.	4a/	-czyz-	.	4a/	.	.
8EE/ 8AA	8E\ 8A 8c#	.	.	.	.	.	.	.	.	.	.	.	.	.	.	.	.
8EE/ 8BB	8D#\ 8A 8c#	.	.	.	.	8C#/	.	.	8C#/	.	.	8c#/	-no	.	8c#/	.	.
8EE/J 8BB	8D#\J 8A 8c#	.	(<16b/LL	(>16bb\LL	.	8D#\	.	.	8D#/	.	.	8d#/	ko-	.	8d#/	.	.
.	.	.	16a/JJ	16aa\JJ	.	.	.	.	.	.	.	.	.	.	.	.	.
!!LO:PB:g=original
=106	=106	=106	=106	=106	=106	=106	=106	=106	=106	=106	=106	=106	=106	=106	=106	=106	=106
8EE/L 8BB	8E\L 8G# 8B	.	16g#/LL	16gg#\LL	.	(>16E\LL	.	.	(<16E/LL	.	.	(<16e/LL	-cha-	.	(<16e/LL	.	.
.	.	.	16f#/JJ	16ff#\	.	16F#\JJ)	.	.	16F#/JJ)	.	.	16f#/JJ)	.	.	16f#/JJ)	.	.
8EE/ 8BB	8E\ 8G# 8B	.	4e/)	16ee\	.	4G#\	.	.	4G#/	.	.	4g#/	-na!	.	4g#/	.	.
.	.	.	.	16cc#\JJ	.	.	.	.	.	.	.	.	.	.	.	.	.
8EE/ 8BB	8E\ 8G# 8B	.	.	8b\L)	.	.	.	.	.	.	.	.	.	.	.	.	.
8EE/J 8BB	8E\J 8G# 8B	.	8e'/	8ee'\J	.	8r	.	.	8r	.	.	8r	.	.	8r	.	.
=107	=107	=107	=107	=107	=107	=107	=107	=107	=107	=107	=107	=107	=107	=107	=107	=107	=107
8EE^^>/L 8BB	8F#^^>\L 8A 8d#	.	4.f#^>/	4.ff#^>\	.	2r	.	.	8A/	Da-	.	2r	.	.	8a/	Da-	.
8EE/ 8BB	8F#\ 8A 8d#	.	.	.	.	.	.	.	(>16B\LL	-na,	.	.	.	.	(>16b\LL	-na,	.
.	.	.	.	.	.	.	.	.	16c#\JJ)	.	.	.	.	.	16cc#\JJ)	.	.
8EE/ 8BB	8F#\ 8A 8B 8d#	.	.	.	.	.	.	.	8d#\	hej,	.	.	.	.	8dd#\	hej,	.
8EE/J 8BB	8F#\J 8A 8B 8d#	.	(<16b/LL	(>16bb\LL	.	.	.	.	8e\	ta	.	.	.	.	8ee\	ta	.
.	.	.	16a/JJ	16aa\JJ	.	.	.	.	.	.	.	.	.	.	.	.	.
=108	=108	=108	=108	=108	=108	=108	=108	=108	=108	=108	=108	=108	=108	=108	=108	=108	=108
8EE/L 8BB	8E\L 8G# 8B 8e	.	8g#/)	8gg#\)	.	4r	.	.	(>16f#\LL	da-	.	4r	.	.	(>16ff#\LL	da-	.
.	.	.	.	.	.	.	.	.	16e\JJ)	.	.	.	.	.	16ee\JJ)	.	.
8EE/ 8BB	8E\ 8G# 8B 8d#	.	4g#^^>/ 4b	4dd#^^>\ 4gg# 4bb	.	.	.	.	4d#\	-na	.	.	.	.	4dd#\	-na	.
8EE/ 8BB	8E\ 8G# 8B 8d#	.	.	.	.	8r	.	.	.	.	.	8r	.	.	.	.	.
!	!	!	!	!	!	!	!	!LO:DY:b:rj	!	!	!	!	!	!LO:DY:rj	!	!	!
8EE/J 8BB	8E\J 8G# 8B 8d#	.	8b\	8bb\	.	8B\	.	f	8B\	.	.	8b\	Oj-	f	8b\	.	.
=109	=109	=109	=109	=109	=109	=109	=109	=109	=109	=109	=109	=109	=109	=109	=109	=109	=109
8EE/L 8BB	8E\L 8G# 8B 8c#	.	4cc#\	4ccc#\	.	4c#\	.	.	4c#\	.	.	4cc#\	-czyz-	.	4cc#\	.	.
8EE/ 8BB	8E\ 8G# 8B 8c#	.	.	.	.	.	.	.	.	.	.	.	.	.	.	.	.
8EE/ 8BB	8E\ 8F# 8A 8c#	.	8a/L	8aa\L	.	8A\	.	.	8A/	.	.	8a/	-no	.	8a/	.	.
8EE/J 8BB	8E\J 8G# 8B	.	8e/J 8g# 8b	8ee\J 8gg# 8bb	.	8E\	.	.	8e\	.	.	8g#/	ko-	.	8b/	.	.
=110	=110	=110	=110	=110	=110	=110	=110	=110	=110	=110	=110	=110	=110	=110	=110	=110	=110
8AAA/L 8AA	8E\L 8A 8c#	.	2e^^>/ 2a 2cc#	2ee^^>\ 2aa 2ccc#	.	(>2A\	.	.	[>2e\	.	.	[2a/	-cha-	.	(>2cc#\	.	.
8AAA/ 8AA	8E\ 8A 8c#	.	.	.	.	.	.	.	.	.	.	.	.	.	.	.	.
8AAA/ 8AA	8E\ 8A 8c#	.	.	.	.	.	.	.	.	.	.	.	.	.	.	.	.
8AAA/J 8AA	8E\J 8A 8c#	.	.	.	.	.	.	.	.	.	.	.	.	.	.	.	.
=111	=111	=111	=111	=111	=111	=111	=111	=111	=111	=111	=111	=111	=111	=111	=111	=111	=111
4FFF#^^>/ 4FF#	4E^^>\ 4A 4e	.	4a^^>\ 4cc# 4gg#	4aa^^>\ 4ccc# 4ggg#	.	2F#\	.	.	(>2e\]	.	.	2a/_	.	.	2gg#\	.	.
4r	4r	.	(>16f#/LL	(>16ff#\LL	.	.	.	.	.	.	.	.	.	.	.	.	.
.	.	.	16g#/	16gg#\	.	.	.	.	.	.	.	.	.	.	.	.	.
.	.	.	16a/	16aa\	.	.	.	.	.	.	.	.	.	.	.	.	.
.	.	.	16cc#/JJ	16ccc#\JJ	.	.	.	.	.	.	.	.	.	.	.	.	.
=112	=112	=112	=112	=112	=112	=112	=112	=112	=112	=112	=112	=112	=112	=112	=112	=112	=112
*	*	*	*	*8va	*	*	*	*	*	*	*	*	*	*	*	*	*
4BBB^^>/ 4BB	4D#^^>\ 4A 4B 4d#	.	8ff#\L)	8fff#\L)	.	2B\)	.	.	2d#\)	.	.	2a/]	.	.	2ff#\)	.	.
.	.	.	(>16ff#\L	(>16fff#\L	.	.	.	.	.	.	.	.	.	.	.	.	.
.	.	.	16gg#\JJ	16ggg#\JJ	.	.	.	.	.	.	.	.	.	.	.	.	.
4r	4r	.	16aa\LL	16aaa\LL	.	.	.	.	.	.	.	.	.	.	.	.	.
.	.	.	16bb\	16bbb\	.	.	.	.	.	.	.	.	.	.	.	.	.
.	.	.	16ccc#\	16cccc#\	.	.	.	.	.	.	.	.	.	.	.	.	.
.	.	.	16ddd#\JJ	16dddd#\JJ	.	.	.	.	.	.	.	.	.	.	.	.	.
!!LO:LB:g=original
=113	=113	=113	=113	=113	=113	=113	=113	=113	=113	=113	=113	=113	=113	=113	=113	=113	=113
8EEE/L 8BBB 8EE	8E\L 8G# 8B 8e	sfz	8eee\)	8eeee\)	.	[<2E\ [>2B	.	.	[>2e\	.	.	[<2g#/	-na!"	.	[>2ee\	.	.
8EE/ 8BB	8E\ 8G# 8B	.	8r	8r	.	.	.	.	.	.	.	.	.	.	.	.	.
8EE/ 8BB	8E\ 8G# 8B	.	4r	4r	.	.	.	.	.	.	.	.	.	.	.	.	.
8EE/J 8BB	8E\J 8G# 8B	.	.	.	.	.	.	.	.	.	.	.	.	.	.	.	.
=114	=114	=114	=114	=114	=114	=114	=114	=114	=114	=114	=114	=114	=114	=114	=114	=114	=114
*rep	*rep	*	*	*	*	*	*	*	*	*	*	*	*	*	*	*	*
8EEE/L 8BBB 8EE	8E\L 8G# 8B 8e	sfzy	8g#\ 8b 8ee 8gg#	8eee\ 8ggg# 8bbb 8eeee	sfz	2E\_< 2B_>	.	.	2e\_>	.	.	2g#/_<	.	.	2ee\_>	.	.
8EE/ 8BB	8E\ 8G# 8B	.	8r	8r	.	.	.	.	.	.	.	.	.	.	.	.	.
8EE/ 8BB	8E\ 8G# 8B	.	4r	4r	.	.	.	.	.	.	.	.	.	.	.	.	.
8EE/J 8BB	8E\J 8G# 8B	.	.	.	.	.	.	.	.	.	.	.	.	.	.	.	.
*Xrep	*Xrep	*	*	*	*	*	*	*	*	*	*	*	*	*	*	*	*
=115	=115	=115	=115	=115	=115	=115	=115	=115	=115	=115	=115	=115	=115	=115	=115	=115	=115
8EE/L 8BB	8E\L 8G# 8B	.	4g#^^>\ 4b 4ee 4gg#	4bb^^>\ 4eee 4ggg# 4bbb	.	4E\] 4B]	.	.	4e\]	.	.	4g#/]	.	.	4ee\]	.	.
8EE/ 8BB	8E\ 8G# 8B	.	.	.	.	.	.	.	.	.	.	.	.	.	.	.	.
8EE/ 8BB	8E\ 8G# 8B	.	8r	8r	.	4r	.	.	4r	.	.	4r	.	.	4r	.	.
8EE/J 8BB	8E\J 8G# 8B	.	(>16aa\LL	(>16aaa\LL	.	.	.	.	.	.	.	.	.	.	.	.	.
.	.	.	16gg#\JJ	16ggg#\JJ	.	.	.	.	.	.	.	.	.	.	.	.	.
=116	=116	=116	=116	=116	=116	=116	=116	=116	=116	=116	=116	=116	=116	=116	=116	=116	=116
8EE/L 8BB	8F#\L 8A 8d#	.	8ff#\)	8fff#\)	.	2r	.	.	2r	.	.	2r	.	.	2r	.	.
8EE^^>/ 8BB	8F#^^>\ 8A 8d#	.	4ccc#^^>\	4cccc#^^>\	.	.	.	.	.	.	.	.	.	.	.	.	.
8EE/ 8BB	8E\ 8A 8c#	.	.	.	.	.	.	.	.	.	.	.	.	.	.	.	.
8EE/J 8BB	8F#\J 8A 8d#	.	16bb\LL	(>16bbb\LL	.	.	.	.	.	.	.	.	.	.	.	.	.
.	.	.	16aa\JJ	16aaa\JJ	.	.	.	.	.	.	.	.	.	.	.	.	.
=117	=117	=117	=117	=117	=117	=117	=117	=117	=117	=117	=117	=117	=117	=117	=117	=117	=117
4EE/ 4BB	4G#\ 4B 4e	.	16gg#\LL	16ggg#\LL	.	2r	.	.	2r	.	.	2r	.	.	2r	.	.
.	.	.	16ff#\	16fff#\	.	.	.	.	.	.	.	.	.	.	.	.	.
.	.	.	16ee\	16eee\	.	.	.	.	.	.	.	.	.	.	.	.	.
.	.	.	16ff#\JJ	16fff#\JJ)	.	.	.	.	.	.	.	.	.	.	.	.	.
8r	8r	.	8gg#\L	8ggg#'\L	.	.	.	.	.	.	.	.	.	.	.	.	.
8CC#^^>/ 8C#	8E^^>\ 8A 8e	.	8cc#^^>\J 8ee 8aa	8eee^^>\J 8aaa	.	.	.	.	.	.	.	.	.	.	.	.	.
=118	=118	=118	=118	=118	=118	=118	=118	=118	=118	=118	=118	=118	=118	=118	=118	=118	=118
4GGG#^^>/ 4GG#	4E^^>\ 4B 4e	.	8b^^>\L 8ee 8bb	(>16eee^^>\LL 16bbb	.	2r	.	.	2r	.	.	2r	.	.	2r	.	.
.	.	.	.	16aaa\	.	.	.	.	.	.	.	.	.	.	.	.	.
.	.	.	(>16gg#\L	16ggg#\	.	.	.	.	.	.	.	.	.	.	.	.	.
.	.	.	16aa\JJ	16aaa\JJ)	.	.	.	.	.	.	.	.	.	.	.	.	.
8r	8r	.	8bb\L)	8bbb'\L	.	.	.	.	.	.	.	.	.	.	.	.	.
8BBB^^>/ 8BB	8D#^^>\ 8A 8B 8d#	.	8dd#^^>\J 8aa 8bb	8ddd#^^>\J 8aaa 8bbb 8dddd#	.	.	.	.	.	.	.	.	.	.	.	.	.
=119	=119	=119	=119	=119	=119	=119	=119	=119	=119	=119	=119	=119	=119	=119	=119	=119	=119
4EEE^^>/ 4EE	4E^^>\ 4G# 4B 4e	.	4ee^^>\ 4gg# 4bb	4eee^^>\ 4ggg# 4bbb 4eeee	.	2r	.	.	2r	.	.	2r	.	.	2r	.	.
4r	4r	.	4r	4r	.	.	.	.	.	.	.	.	.	.	.	.	.
=120	=120	=120	=120	=120	=120	=120	=120	=120	=120	=120	=120	=120	=120	=120	=120	=120	=120
4EEE^^>/ 4EE	4E^^>\ 4G# 4B 4e	.	4b^^>\ 4ee 4gg# 4bb	4eee^^>\ 4ggg# 4bbb 4eeee	.	2r	.	.	2r	.	.	2r	.	.	2r	.	.
4EEE^^>/ 4EE	4E^^>\ 4G# 4B 4e	.	4b^^>\ 4ee 4gg# 4bb	4eee^^>\ 4ggg# 4bbb 4eeee	.	.	.	.	.	.	.	.	.	.	.	.	.
*	*	*	*	*X8va	*	*	*	*	*	*	*	*	*	*	*	*	*
=121	=121	=121	=121	=121	=121	=121	=121	=121	=121	=121	=121	=121	=121	=121	=121	=121	=121
4EEE^^>/ 4EE	4BB\ 4E 4G# 4B	sfz	4e/ 4g# 4b	4ee\ 4gg# 4bb 4eee	sfz	2r	.	.	2r	.	.	2r	.	.	2r	.	.
4r	4r	.	4r	4r	.	.	.	.	.	.	.	.	.	.	.	.	.
!!LO:PB:g=original
==	==	==	==	==	==	==	==	==	==	==	==	==	==	==	==	==	==
*-	*-	*-	*-	*-	*-	*-	*-	*-	*-	*-	*-	*-	*-	*-	*-	*-	*-
!!!system-decoration: {{(s1,s2,s3,s4)}{{(s5,s6)}{(s7,s8)}}}
!!!RDF**kern: < = below
!!!RDF**kern: > = above
!!!ENC: Mateusz Solarz
!!!END: 2021-05-07
!!!ENC: Marta Chmielewska
!!!END: 2021-06-02
